(.../pcb-gcode-3.6.2.4/pcb-gcode.ulp)
(Copyright 2005 - 2012 by John Johnson)
(See readme.txt for licensing terms.)
(This file generated from the board:)
(.../eagleworkspace/PovSheild24/povsheild4x8.brd)
(Current profile is .../pcb-gcode-3.6.2.4/profiles/mach.pp  )
(This file generated 04-Aug-15 4:28:29 PM)
(Settings from pcb-machine.h)
(spindle on time = 3.0000)
(  Tool Size)
(0.1240  )
(spindle speed = 30000.0000)
(tool change at 0.0000  0.0000  2.4000  )
(feed rate xy = F500   )
(feed rate z  = F254   )
(Z Axis Settings)
(  High     Up        Down     Drill)
(12.7000 	2.5400  	-0.0200 	-2.0000 )
(Settings from pcb-defaults.h)
(isolate min = 0.0254)
(isolate max = 0.5080)
(isolate step = 0.1270)
(Generated top outlines, top drill, )
(Unit of measure: mm)
(Metric Mode)
G21
(Absolute Coordinates)
G90
S30000
G00 Z12.7000 
G00 X0.0000  Y0.0000  
M03
G04 P3.000000
G00 Z2.5400  
G00 X4.4775  Y11.1016 
G01 Z-0.0200 F254   
G01 X4.4392  Y11.1678 F500   
G01 X4.4194  Y11.2417 
G01 X4.4194  Y15.9596 
G01 X4.1316  Y16.2475 
G01 X4.0775  Y16.3016 
G01 X4.0392  Y16.3678 
G01 X4.0194  Y16.4417 
G01 X4.0194  Y18.7596 
G01 X2.9316  Y19.8475 
G01 X2.8775  Y19.9016 
G01 X2.8392  Y19.9678 
G01 X2.8194  Y20.0417 
G01 X2.8194  Y35.7183 
G01 X2.8392  Y35.7922 
G01 X2.8775  Y35.8584 
G01 X4.4194  Y37.4004 
G01 X4.4194  Y41.0906 
G01 X4.4066  Y41.0906 
G01 X4.3745  Y41.1039 
G01 X4.3499  Y41.1285 
G01 X4.3366  Y41.1606 
G01 X4.3366  Y42.7194 
G01 X4.3499  Y42.7515 
G01 X4.3745  Y42.7761 
G01 X4.4066  Y42.7894 
G01 X4.5144  Y42.7894 
G01 X4.5144  Y46.1706 
G01 X4.4066  Y46.1706 
G01 X4.3745  Y46.1839 
G01 X4.3499  Y46.2085 
G01 X4.3366  Y46.2406 
G01 X4.3366  Y47.7994 
G01 X4.3499  Y47.8315 
G01 X4.3745  Y47.8561 
G01 X4.4066  Y47.8694 
G01 X5.2034  Y47.8694 
G01 X5.2355  Y47.8561 
G01 X5.2601  Y47.8315 
G01 X5.2734  Y47.7994 
G01 X5.2734  Y46.2406 
G01 X5.2601  Y46.2085 
G01 X5.2355  Y46.1839 
G01 X5.2034  Y46.1706 
G01 X5.0956  Y46.1706 
G01 X5.0956  Y42.7894 
G01 X5.2034  Y42.7894 
G01 X5.2355  Y42.7761 
G01 X5.2601  Y42.7515 
G01 X5.2734  Y42.7194 
G01 X5.2734  Y41.1606 
G01 X5.2601  Y41.1285 
G01 X5.2355  Y41.1039 
G01 X5.2034  Y41.0906 
G01 X5.0006  Y41.0906 
G01 X5.0006  Y37.2417 
G01 X4.9808  Y37.1678 
G01 X4.9425  Y37.1016 
G01 X4.8884  Y37.0475 
G01 X3.4006  Y35.5596 
G01 X3.4006  Y20.2004 
G01 X4.5425  Y19.0584 
G01 X4.5808  Y18.9922 
G01 X4.6006  Y18.9183 
G01 X4.6006  Y16.6004 
G01 X4.9425  Y16.2584 
G01 X4.9808  Y16.1922 
G01 X5.0006  Y16.1183 
G01 X5.0006  Y11.4004 
G01 X9.6304  Y6.7706  
G01 X47.7983 Y6.7706  
G01 X47.8722 Y6.7508  
G01 X47.9384 Y6.7125  
G01 X47.9925 Y6.6584  
G01 X49.1258 Y5.5252  
G01 X49.1334 Y5.5303  
G01 X49.3204 Y5.6077  
G01 X49.5188 Y5.6472  
G01 X49.7212 Y5.6472  
G01 X49.9196 Y5.6077  
G01 X50.1066 Y5.5303  
G01 X50.2748 Y5.4179  
G01 X50.4179 Y5.2748  
G01 X50.5303 Y5.1066  
G01 X50.6077 Y4.9196  
G01 X50.6472 Y4.7212  
G01 X50.6472 Y4.5188  
G01 X50.6077 Y4.3204  
G01 X50.5303 Y4.1334  
G01 X50.4179 Y3.9652  
G01 X50.2748 Y3.8221  
G01 X50.1066 Y3.7097  
G01 X49.9196 Y3.6323  
G01 X49.7212 Y3.5928  
G01 X49.5188 Y3.5928  
G01 X49.3204 Y3.6323  
G01 X49.1334 Y3.7097  
G01 X48.9652 Y3.8221  
G01 X48.8221 Y3.9652  
G01 X48.7097 Y4.1334  
G01 X48.6323 Y4.3204  
G01 X48.5928 Y4.5188  
G01 X48.5928 Y4.7212  
G01 X48.6323 Y4.9196  
G01 X48.7097 Y5.1066  
G01 X48.7148 Y5.1142  
G01 X47.6396 Y6.1894  
G01 X9.4717  Y6.1894  
G01 X9.3978  Y6.2092  
G01 X9.3316  Y6.2475  
G01 X4.5316  Y11.0475 
G01 X4.4775  Y11.1016 
G00 Z2.5400  
G00 X5.2775  Y11.5016 
G01 Z-0.0200 F254   
G01 X5.2392  Y11.5678 F500   
G01 X5.2194  Y11.6417 
G01 X5.2194  Y16.3596 
G01 X4.9316  Y16.6475 
G01 X4.8775  Y16.7016 
G01 X4.8392  Y16.7678 
G01 X4.8194  Y16.8417 
G01 X4.8194  Y19.1596 
G01 X3.7316  Y20.2475 
G01 X3.6775  Y20.3016 
G01 X3.6392  Y20.3678 
G01 X3.6194  Y20.4417 
G01 X3.6194  Y34.9183 
G01 X3.6392  Y34.9922 
G01 X3.6775  Y35.0584 
G01 X18.0775 Y49.4584 
G01 X18.1316 Y49.5125 
G01 X18.1978 Y49.5508 
G01 X18.2717 Y49.5706 
G01 X24.1194 Y49.5706 
G01 X24.1194 Y49.8006 
G01 X24.1327 Y49.8327 
G01 X24.1573 Y49.8573 
G01 X24.1894 Y49.8706 
G01 X25.2306 Y49.8706 
G01 X25.2627 Y49.8573 
G01 X25.2873 Y49.8327 
G01 X25.3006 Y49.8006 
G01 X25.3006 Y49.5706 
G01 X49.7194 Y49.5706 
G01 X49.7194 Y49.8006 
G01 X49.7327 Y49.8327 
G01 X49.7573 Y49.8573 
G01 X49.7894 Y49.8706 
G01 X50.8306 Y49.8706 
G01 X50.8627 Y49.8573 
G01 X50.8873 Y49.8327 
G01 X50.9006 Y49.8006 
G01 X50.9006 Y49.5706 
G01 X75.7194 Y49.5706 
G01 X75.7194 Y49.8006 
G01 X75.7327 Y49.8327 
G01 X75.7573 Y49.8573 
G01 X75.7894 Y49.8706 
G01 X76.8306 Y49.8706 
G01 X76.8627 Y49.8573 
G01 X76.8873 Y49.8327 
G01 X76.9006 Y49.8006 
G01 X76.9006 Y48.7594 
G01 X76.8873 Y48.7273 
G01 X76.8627 Y48.7027 
G01 X76.8306 Y48.6894 
G01 X75.7894 Y48.6894 
G01 X75.7573 Y48.7027 
G01 X75.7327 Y48.7273 
G01 X75.7194 Y48.7594 
G01 X75.7194 Y48.9894 
G01 X50.9006 Y48.9894 
G01 X50.9006 Y48.7594 
G01 X50.8873 Y48.7273 
G01 X50.8627 Y48.7027 
G01 X50.8306 Y48.6894 
G01 X49.7894 Y48.6894 
G01 X49.7573 Y48.7027 
G01 X49.7327 Y48.7273 
G01 X49.7194 Y48.7594 
G01 X49.7194 Y48.9894 
G01 X25.3006 Y48.9894 
G01 X25.3006 Y48.7594 
G01 X25.2873 Y48.7273 
G01 X25.2627 Y48.7027 
G01 X25.2306 Y48.6894 
G01 X24.1894 Y48.6894 
G01 X24.1573 Y48.7027 
G01 X24.1327 Y48.7273 
G01 X24.1194 Y48.7594 
G01 X24.1194 Y48.9894 
G01 X18.4304 Y48.9894 
G01 X4.2006  Y34.7596 
G01 X4.2006  Y20.6004 
G01 X5.3425  Y19.4584 
G01 X5.3808  Y19.3922 
G01 X5.4006  Y19.3183 
G01 X5.4006  Y17.0004 
G01 X5.7425  Y16.6584 
G01 X5.7808  Y16.5922 
G01 X5.8006  Y16.5183 
G01 X5.8006  Y11.8004 
G01 X9.6304  Y7.9706  
G01 X12.1194 Y7.9706  
G01 X12.1194 Y8.2006  
G01 X12.1327 Y8.2327  
G01 X12.1573 Y8.2573  
G01 X12.1894 Y8.2706  
G01 X13.2306 Y8.2706  
G01 X13.2627 Y8.2573  
G01 X13.2873 Y8.2327  
G01 X13.3006 Y8.2006  
G01 X13.3006 Y7.9706  
G01 X24.9194 Y7.9706  
G01 X24.9194 Y8.2006  
G01 X24.9327 Y8.2327  
G01 X24.9573 Y8.2573  
G01 X24.9894 Y8.2706  
G01 X26.0306 Y8.2706  
G01 X26.0627 Y8.2573  
G01 X26.0873 Y8.2327  
G01 X26.1006 Y8.2006  
G01 X26.1006 Y7.9706  
G01 X37.7194 Y7.9706  
G01 X37.7194 Y8.2006  
G01 X37.7327 Y8.2327  
G01 X37.7573 Y8.2573  
G01 X37.7894 Y8.2706  
G01 X38.8306 Y8.2706  
G01 X38.8627 Y8.2573  
G01 X38.8873 Y8.2327  
G01 X38.9006 Y8.2006  
G01 X38.9006 Y7.9706  
G01 X50.5194 Y7.9706  
G01 X50.5194 Y8.2006  
G01 X50.5327 Y8.2327  
G01 X50.5573 Y8.2573  
G01 X50.5894 Y8.2706  
G01 X51.6306 Y8.2706  
G01 X51.6627 Y8.2573  
G01 X51.6873 Y8.2327  
G01 X51.7006 Y8.2006  
G01 X51.7006 Y7.9706  
G01 X63.3194 Y7.9706  
G01 X63.3194 Y8.2006  
G01 X63.3327 Y8.2327  
G01 X63.3573 Y8.2573  
G01 X63.3894 Y8.2706  
G01 X64.4306 Y8.2706  
G01 X64.4627 Y8.2573  
G01 X64.4873 Y8.2327  
G01 X64.5006 Y8.2006  
G01 X64.5006 Y7.9706  
G01 X75.7194 Y7.9706  
G01 X75.7194 Y8.2006  
G01 X75.7327 Y8.2327  
G01 X75.7573 Y8.2573  
G01 X75.7894 Y8.2706  
G01 X76.8306 Y8.2706  
G01 X76.8627 Y8.2573  
G01 X76.8873 Y8.2327  
G01 X76.9006 Y8.2006  
G01 X76.9006 Y7.1594  
G01 X76.8873 Y7.1273  
G01 X76.8627 Y7.1027  
G01 X76.8306 Y7.0894  
G01 X75.7894 Y7.0894  
G01 X75.7573 Y7.1027  
G01 X75.7327 Y7.1273  
G01 X75.7194 Y7.1594  
G01 X75.7194 Y7.3894  
G01 X64.5006 Y7.3894  
G01 X64.5006 Y7.1594  
G01 X64.4873 Y7.1273  
G01 X64.4627 Y7.1027  
G01 X64.4306 Y7.0894  
G01 X64.2006 Y7.0894  
G01 X64.2006 Y5.4474  
G01 X64.2448 Y5.4179  
G01 X64.3879 Y5.2748  
G01 X64.5003 Y5.1066  
G01 X64.5777 Y4.9196  
G01 X64.6172 Y4.7212  
G01 X64.6172 Y4.5188  
G01 X64.5777 Y4.3204  
G01 X64.5003 Y4.1334  
G01 X64.3879 Y3.9652  
G01 X64.2448 Y3.8221  
G01 X64.0766 Y3.7097  
G01 X63.8896 Y3.6323  
G01 X63.6912 Y3.5928  
G01 X63.4888 Y3.5928  
G01 X63.2904 Y3.6323  
G01 X63.1034 Y3.7097  
G01 X62.9352 Y3.8221  
G01 X62.7921 Y3.9652  
G01 X62.6797 Y4.1334  
G01 X62.6023 Y4.3204  
G01 X62.5628 Y4.5188  
G01 X62.5628 Y4.7212  
G01 X62.6023 Y4.9196  
G01 X62.6797 Y5.1066  
G01 X62.7921 Y5.2748  
G01 X62.9352 Y5.4179  
G01 X63.1034 Y5.5303  
G01 X63.2904 Y5.6077  
G01 X63.4888 Y5.6472  
G01 X63.6194 Y5.6472  
G01 X63.6194 Y7.0894  
G01 X63.3894 Y7.0894  
G01 X63.3573 Y7.1027  
G01 X63.3327 Y7.1273  
G01 X63.3194 Y7.1594  
G01 X63.3194 Y7.3894  
G01 X51.7006 Y7.3894  
G01 X51.7006 Y7.1594  
G01 X51.6873 Y7.1273  
G01 X51.6627 Y7.1027  
G01 X51.6306 Y7.0894  
G01 X50.5894 Y7.0894  
G01 X50.5573 Y7.1027  
G01 X50.5327 Y7.1273  
G01 X50.5194 Y7.1594  
G01 X50.5194 Y7.3894  
G01 X38.9006 Y7.3894  
G01 X38.9006 Y7.1594  
G01 X38.8873 Y7.1273  
G01 X38.8627 Y7.1027  
G01 X38.8306 Y7.0894  
G01 X37.7894 Y7.0894  
G01 X37.7573 Y7.1027  
G01 X37.7327 Y7.1273  
G01 X37.7194 Y7.1594  
G01 X37.7194 Y7.3894  
G01 X26.1006 Y7.3894  
G01 X26.1006 Y7.1594  
G01 X26.0873 Y7.1273  
G01 X26.0627 Y7.1027  
G01 X26.0306 Y7.0894  
G01 X24.9894 Y7.0894  
G01 X24.9573 Y7.1027  
G01 X24.9327 Y7.1273  
G01 X24.9194 Y7.1594  
G01 X24.9194 Y7.3894  
G01 X13.3006 Y7.3894  
G01 X13.3006 Y7.1594  
G01 X13.2873 Y7.1273  
G01 X13.2627 Y7.1027  
G01 X13.2306 Y7.0894  
G01 X12.1894 Y7.0894  
G01 X12.1573 Y7.1027  
G01 X12.1327 Y7.1273  
G01 X12.1194 Y7.1594  
G01 X12.1194 Y7.3894  
G01 X9.4717  Y7.3894  
G01 X9.3978  Y7.4092  
G01 X9.3316  Y7.4475  
G01 X5.3316  Y11.4475 
G01 X5.2775  Y11.5016 
G00 Z2.5400  
G00 X6.0775  Y11.9016 
G01 Z-0.0200 F254   
G01 X6.0392  Y11.9678 F500   
G01 X6.0194  Y12.0417 
G01 X6.0194  Y16.7596 
G01 X5.7316  Y17.0475 
G01 X5.6775  Y17.1016 
G01 X5.6392  Y17.1678 
G01 X5.6194  Y17.2417 
G01 X5.6194  Y19.5596 
G01 X4.4775  Y20.7016 
G01 X4.4392  Y20.7678 
G01 X4.4194  Y20.8417 
G01 X4.4194  Y34.5183 
G01 X4.4392  Y34.5922 
G01 X4.4775  Y34.6584 
G01 X18.0775 Y48.2584 
G01 X18.1316 Y48.3125 
G01 X18.1978 Y48.3508 
G01 X18.2717 Y48.3706 
G01 X25.7194 Y48.3706 
G01 X25.7194 Y48.6006 
G01 X25.7327 Y48.6327 
G01 X25.7573 Y48.6573 
G01 X25.7894 Y48.6706 
G01 X26.8306 Y48.6706 
G01 X26.8627 Y48.6573 
G01 X26.8873 Y48.6327 
G01 X26.9006 Y48.6006 
G01 X26.9006 Y48.3706 
G01 X51.3194 Y48.3706 
G01 X51.3194 Y48.6006 
G01 X51.3327 Y48.6327 
G01 X51.3573 Y48.6573 
G01 X51.3894 Y48.6706 
G01 X52.4306 Y48.6706 
G01 X52.4627 Y48.6573 
G01 X52.4873 Y48.6327 
G01 X52.5006 Y48.6006 
G01 X52.5006 Y48.3706 
G01 X77.3896 Y48.3706 
G01 X77.6194 Y48.6004 
G01 X77.6194 Y48.6894 
G01 X77.3894 Y48.6894 
G01 X77.3573 Y48.7027 
G01 X77.3327 Y48.7273 
G01 X77.3194 Y48.7594 
G01 X77.3194 Y49.8006 
G01 X77.3327 Y49.8327 
G01 X77.3573 Y49.8573 
G01 X77.3894 Y49.8706 
G01 X78.4306 Y49.8706 
G01 X78.4627 Y49.8573 
G01 X78.4873 Y49.8327 
G01 X78.5006 Y49.8006 
G01 X78.5006 Y48.7594 
G01 X78.4873 Y48.7273 
G01 X78.4627 Y48.7027 
G01 X78.4306 Y48.6894 
G01 X78.2006 Y48.6894 
G01 X78.2006 Y48.4417 
G01 X78.1808 Y48.3678 
G01 X78.1425 Y48.3016 
G01 X78.0884 Y48.2475 
G01 X77.6884 Y47.8475 
G01 X77.6222 Y47.8092 
G01 X77.5483 Y47.7894 
G01 X52.5006 Y47.7894 
G01 X52.5006 Y47.5594 
G01 X52.4873 Y47.5273 
G01 X52.4627 Y47.5027 
G01 X52.4306 Y47.4894 
G01 X51.3894 Y47.4894 
G01 X51.3573 Y47.5027 
G01 X51.3327 Y47.5273 
G01 X51.3194 Y47.5594 
G01 X51.3194 Y47.7894 
G01 X26.9006 Y47.7894 
G01 X26.9006 Y47.5594 
G01 X26.8873 Y47.5273 
G01 X26.8627 Y47.5027 
G01 X26.8306 Y47.4894 
G01 X25.7894 Y47.4894 
G01 X25.7573 Y47.5027 
G01 X25.7327 Y47.5273 
G01 X25.7194 Y47.5594 
G01 X25.7194 Y47.7894 
G01 X18.4304 Y47.7894 
G01 X5.0006  Y34.3596 
G01 X5.0006  Y21.0004 
G01 X6.1425  Y19.8584 
G01 X6.1808  Y19.7922 
G01 X6.2006  Y19.7183 
G01 X6.2006  Y17.4004 
G01 X6.5425  Y17.0584 
G01 X6.5808  Y16.9922 
G01 X6.6006  Y16.9183 
G01 X6.6006  Y12.2004 
G01 X9.6304  Y9.1706  
G01 X10.5194 Y9.1706  
G01 X10.5194 Y9.4006  
G01 X10.5327 Y9.4327  
G01 X10.5573 Y9.4573  
G01 X10.5894 Y9.4706  
G01 X11.6306 Y9.4706  
G01 X11.6627 Y9.4573  
G01 X11.6873 Y9.4327  
G01 X11.7006 Y9.4006  
G01 X11.7006 Y9.1706  
G01 X23.3194 Y9.1706  
G01 X23.3194 Y9.4006  
G01 X23.3327 Y9.4327  
G01 X23.3573 Y9.4573  
G01 X23.3894 Y9.4706  
G01 X24.4306 Y9.4706  
G01 X24.4627 Y9.4573  
G01 X24.4873 Y9.4327  
G01 X24.5006 Y9.4006  
G01 X24.5006 Y9.1706  
G01 X36.1194 Y9.1706  
G01 X36.1194 Y9.4006  
G01 X36.1327 Y9.4327  
G01 X36.1573 Y9.4573  
G01 X36.1894 Y9.4706  
G01 X37.2306 Y9.4706  
G01 X37.2627 Y9.4573  
G01 X37.2873 Y9.4327  
G01 X37.3006 Y9.4006  
G01 X37.3006 Y9.1706  
G01 X48.9194 Y9.1706  
G01 X48.9194 Y9.4006  
G01 X48.9327 Y9.4327  
G01 X48.9573 Y9.4573  
G01 X48.9894 Y9.4706  
G01 X50.0306 Y9.4706  
G01 X50.0627 Y9.4573  
G01 X50.0873 Y9.4327  
G01 X50.1006 Y9.4006  
G01 X50.1006 Y9.1706  
G01 X61.7194 Y9.1706  
G01 X61.7194 Y9.4006  
G01 X61.7327 Y9.4327  
G01 X61.7573 Y9.4573  
G01 X61.7894 Y9.4706  
G01 X62.8306 Y9.4706  
G01 X62.8627 Y9.4573  
G01 X62.8873 Y9.4327  
G01 X62.9006 Y9.4006  
G01 X62.9006 Y9.1706  
G01 X74.1194 Y9.1706  
G01 X74.1194 Y9.4006  
G01 X74.1327 Y9.4327  
G01 X74.1573 Y9.4573  
G01 X74.1894 Y9.4706  
G01 X75.2306 Y9.4706  
G01 X75.2627 Y9.4573  
G01 X75.2873 Y9.4327  
G01 X75.3006 Y9.4006  
G01 X75.3006 Y9.1706  
G01 X79.5483 Y9.1706  
G01 X79.6222 Y9.1508  
G01 X79.6884 Y9.1125  
G01 X79.7425 Y9.0584  
G01 X80.1425 Y8.6584  
G01 X80.1808 Y8.5922  
G01 X80.2006 Y8.5183  
G01 X80.2006 Y6.8417  
G01 X80.1808 Y6.7678  
G01 X80.1425 Y6.7016  
G01 X80.0884 Y6.6475  
G01 X79.7425 Y6.3016  
G01 X79.6884 Y6.2475  
G01 X79.6222 Y6.2092  
G01 X79.5483 Y6.1894  
G01 X78.4304 Y6.1894  
G01 X77.2434 Y5.0024  
G01 X77.2777 Y4.9196  
G01 X77.3172 Y4.7212  
G01 X77.3172 Y4.5188  
G01 X77.2777 Y4.3204  
G01 X77.2003 Y4.1334  
G01 X77.0879 Y3.9652  
G01 X76.9448 Y3.8221  
G01 X76.7766 Y3.7097  
G01 X76.5896 Y3.6323  
G01 X76.3912 Y3.5928  
G01 X76.1888 Y3.5928  
G01 X75.9904 Y3.6323  
G01 X75.8034 Y3.7097  
G01 X75.6352 Y3.8221  
G01 X75.4921 Y3.9652  
G01 X75.3797 Y4.1334  
G01 X75.3023 Y4.3204  
G01 X75.2628 Y4.5188  
G01 X75.2628 Y4.7212  
G01 X75.3023 Y4.9196  
G01 X75.3797 Y5.1066  
G01 X75.4921 Y5.2748  
G01 X75.6352 Y5.4179  
G01 X75.8034 Y5.5303  
G01 X75.9904 Y5.6077  
G01 X76.1888 Y5.6472  
G01 X76.3912 Y5.6472  
G01 X76.5896 Y5.6077  
G01 X76.7766 Y5.5303  
G01 X76.8801 Y5.4611  
G01 X78.0775 Y6.6584  
G01 X78.1316 Y6.7125  
G01 X78.1978 Y6.7508  
G01 X78.2717 Y6.7706  
G01 X79.3896 Y6.7706  
G01 X79.6194 Y7.0004  
G01 X79.6194 Y8.3596  
G01 X79.3896 Y8.5894  
G01 X75.3006 Y8.5894  
G01 X75.3006 Y8.3594  
G01 X75.2873 Y8.3273  
G01 X75.2627 Y8.3027  
G01 X75.2306 Y8.2894  
G01 X74.1894 Y8.2894  
G01 X74.1573 Y8.3027  
G01 X74.1327 Y8.3273  
G01 X74.1194 Y8.3594  
G01 X74.1194 Y8.5894  
G01 X62.9006 Y8.5894  
G01 X62.9006 Y8.3594  
G01 X62.8873 Y8.3273  
G01 X62.8627 Y8.3027  
G01 X62.8306 Y8.2894  
G01 X61.7894 Y8.2894  
G01 X61.7573 Y8.3027  
G01 X61.7327 Y8.3273  
G01 X61.7194 Y8.3594  
G01 X61.7194 Y8.5894  
G01 X50.1006 Y8.5894  
G01 X50.1006 Y8.3594  
G01 X50.0873 Y8.3273  
G01 X50.0627 Y8.3027  
G01 X50.0306 Y8.2894  
G01 X48.9894 Y8.2894  
G01 X48.9573 Y8.3027  
G01 X48.9327 Y8.3273  
G01 X48.9194 Y8.3594  
G01 X48.9194 Y8.5894  
G01 X37.3006 Y8.5894  
G01 X37.3006 Y8.3594  
G01 X37.2873 Y8.3273  
G01 X37.2627 Y8.3027  
G01 X37.2306 Y8.2894  
G01 X36.1894 Y8.2894  
G01 X36.1573 Y8.3027  
G01 X36.1327 Y8.3273  
G01 X36.1194 Y8.3594  
G01 X36.1194 Y8.5894  
G01 X24.5006 Y8.5894  
G01 X24.5006 Y8.3594  
G01 X24.4873 Y8.3273  
G01 X24.4627 Y8.3027  
G01 X24.4306 Y8.2894  
G01 X23.3894 Y8.2894  
G01 X23.3573 Y8.3027  
G01 X23.3327 Y8.3273  
G01 X23.3194 Y8.3594  
G01 X23.3194 Y8.5894  
G01 X11.7006 Y8.5894  
G01 X11.7006 Y8.3594  
G01 X11.6873 Y8.3273  
G01 X11.6627 Y8.3027  
G01 X11.6306 Y8.2894  
G01 X10.5894 Y8.2894  
G01 X10.5573 Y8.3027  
G01 X10.5327 Y8.3273  
G01 X10.5194 Y8.3594  
G01 X10.5194 Y8.5894  
G01 X9.4717  Y8.5894  
G01 X9.3978  Y8.6092  
G01 X9.3316  Y8.6475  
G01 X6.1316  Y11.8475 
G01 X6.0775  Y11.9016 
G00 Z2.5400  
G00 X6.8775  Y12.3016 
G01 Z-0.0200 F254   
G01 X6.8392  Y12.3678 F500   
G01 X6.8194  Y12.4417 
G01 X6.8194  Y17.1596 
G01 X6.5316  Y17.4475 
G01 X6.4775  Y17.5016 
G01 X6.4392  Y17.5678 
G01 X6.4194  Y17.6417 
G01 X6.4194  Y19.9596 
G01 X5.3316  Y21.0475 
G01 X5.2775  Y21.1016 
G01 X5.2392  Y21.1678 
G01 X5.2194  Y21.2417 
G01 X5.2194  Y34.1183 
G01 X5.2392  Y34.1922 
G01 X5.2775  Y34.2584 
G01 X15.2775 Y44.2584 
G01 X15.3316 Y44.3125 
G01 X15.3978 Y44.3508 
G01 X15.4717 Y44.3706 
G01 X19.4474 Y44.3706 
G01 X19.4474 Y44.5868 
G01 X19.4607 Y44.6189 
G01 X19.4853 Y44.6435 
G01 X19.5174 Y44.6568 
G01 X19.5744 Y44.6568 
G01 X19.5744 Y44.9183 
G01 X19.5942 Y44.9922 
G01 X19.6325 Y45.0584 
G01 X19.6866 Y45.1125 
G01 X19.7528 Y45.1508 
G01 X19.7760 Y45.1570 
G01 X21.6775 Y47.0584 
G01 X21.7316 Y47.1125 
G01 X21.7978 Y47.1508 
G01 X21.8717 Y47.1706 
G01 X27.1483 Y47.1706 
G01 X27.2222 Y47.1508 
G01 X27.2884 Y47.1125 
G01 X28.0884 Y46.3125 
G01 X28.1425 Y46.2584 
G01 X28.1808 Y46.1922 
G01 X28.2006 Y46.1183 
G01 X28.2006 Y45.5706 
G01 X45.1483 Y45.5706 
G01 X45.2222 Y45.5508 
G01 X45.2884 Y45.5125 
G01 X45.5100 Y45.2910 
G01 X47.2775 Y47.0584 
G01 X47.3316 Y47.1125 
G01 X47.3978 Y47.1508 
G01 X47.4717 Y47.1706 
G01 X52.7483 Y47.1706 
G01 X52.8222 Y47.1508 
G01 X52.8884 Y47.1125 
G01 X53.6884 Y46.3125 
G01 X53.7425 Y46.2584 
G01 X53.7808 Y46.1922 
G01 X53.8006 Y46.1183 
G01 X53.8006 Y45.5706 
G01 X70.7483 Y45.5706 
G01 X70.8222 Y45.5508 
G01 X70.8884 Y45.5125 
G01 X71.1100 Y45.2910 
G01 X73.3316 Y47.5125 
G01 X73.3978 Y47.5508 
G01 X73.4717 Y47.5706 
G01 X78.5896 Y47.5706 
G01 X79.2194 Y48.2004 
G01 X79.2194 Y49.5596 
G01 X78.5896 Y50.1894 
G01 X75.6304 Y50.1894 
G01 X75.2884 Y49.8475 
G01 X75.2222 Y49.8092 
G01 X75.1483 Y49.7894 
G01 X61.0717 Y49.7894 
G01 X60.9978 Y49.8092 
G01 X60.9316 Y49.8475 
G01 X60.8775 Y49.9016 
G01 X59.5475 Y51.2316 
G01 X59.5092 Y51.2978 
G01 X59.4894 Y51.3717 
G01 X59.4894 Y51.8905 
G01 X59.4804 Y51.8923 
G01 X59.2934 Y51.9697 
G01 X59.1252 Y52.0821 
G01 X58.9821 Y52.2252 
G01 X58.8697 Y52.3934 
G01 X58.7923 Y52.5804 
G01 X58.7528 Y52.7788 
G01 X58.7528 Y52.9812 
G01 X58.7923 Y53.1796 
G01 X58.8697 Y53.3666 
G01 X58.9821 Y53.5348 
G01 X59.1252 Y53.6779 
G01 X59.2934 Y53.7903 
G01 X59.4804 Y53.8677 
G01 X59.6788 Y53.9072 
G01 X59.8812 Y53.9072 
G01 X60.0796 Y53.8677 
G01 X60.2666 Y53.7903 
G01 X60.4348 Y53.6779 
G01 X60.5779 Y53.5348 
G01 X60.6903 Y53.3666 
G01 X60.7677 Y53.1796 
G01 X60.8072 Y52.9812 
G01 X60.8072 Y52.7788 
G01 X60.7677 Y52.5804 
G01 X60.6903 Y52.3934 
G01 X60.5779 Y52.2252 
G01 X60.4348 Y52.0821 
G01 X60.2666 Y51.9697 
G01 X60.0796 Y51.8923 
G01 X60.0706 Y51.8905 
G01 X60.0706 Y51.5304 
G01 X61.2304 Y50.3706 
G01 X74.9896 Y50.3706 
G01 X75.2775 Y50.6584 
G01 X75.3316 Y50.7125 
G01 X75.3978 Y50.7508 
G01 X75.4717 Y50.7706 
G01 X78.7483 Y50.7706 
G01 X78.8222 Y50.7508 
G01 X78.8884 Y50.7125 
G01 X78.9425 Y50.6584 
G01 X79.6884 Y49.9125 
G01 X79.7425 Y49.8584 
G01 X79.7808 Y49.7922 
G01 X79.8006 Y49.7183 
G01 X79.8006 Y48.0417 
G01 X79.7808 Y47.9678 
G01 X79.7425 Y47.9016 
G01 X78.9425 Y47.1016 
G01 X78.8884 Y47.0475 
G01 X78.8222 Y47.0092 
G01 X78.7483 Y46.9894 
G01 X73.6304 Y46.9894 
G01 X71.4006 Y44.7596 
G01 X71.4006 Y44.6568 
G01 X71.4126 Y44.6568 
G01 X71.4447 Y44.6435 
G01 X71.4693 Y44.6189 
G01 X71.4826 Y44.5868 
G01 X71.4826 Y42.5200 
G01 X71.4693 Y42.4879 
G01 X71.4447 Y42.4633 
G01 X71.4126 Y42.4500 
G01 X70.7174 Y42.4500 
G01 X70.6853 Y42.4633 
G01 X70.6607 Y42.4879 
G01 X70.6474 Y42.5200 
G01 X70.6474 Y44.5868 
G01 X70.6607 Y44.6189 
G01 X70.6853 Y44.6435 
G01 X70.7174 Y44.6568 
G01 X70.8194 Y44.6568 
G01 X70.8194 Y44.7596 
G01 X70.5896 Y44.9894 
G01 X53.6304 Y44.9894 
G01 X53.3756 Y44.7346 
G01 X53.3756 Y44.6568 
G01 X53.4326 Y44.6568 
G01 X53.4647 Y44.6435 
G01 X53.4893 Y44.6189 
G01 X53.5026 Y44.5868 
G01 X53.5026 Y42.5200 
G01 X53.4893 Y42.4879 
G01 X53.4647 Y42.4633 
G01 X53.4326 Y42.4500 
G01 X52.7374 Y42.4500 
G01 X52.7053 Y42.4633 
G01 X52.6807 Y42.4879 
G01 X52.6674 Y42.5200 
G01 X52.6674 Y44.5868 
G01 X52.6807 Y44.6189 
G01 X52.7053 Y44.6435 
G01 X52.7374 Y44.6568 
G01 X52.7944 Y44.6568 
G01 X52.7944 Y44.8933 
G01 X52.8142 Y44.9672 
G01 X52.8525 Y45.0334 
G01 X52.9066 Y45.0875 
G01 X53.2194 Y45.4004 
G01 X53.2194 Y45.9596 
G01 X52.5896 Y46.5894 
G01 X47.6304 Y46.5894 
G01 X45.8006 Y44.7596 
G01 X45.8006 Y44.6568 
G01 X45.8126 Y44.6568 
G01 X45.8447 Y44.6435 
G01 X45.8693 Y44.6189 
G01 X45.8826 Y44.5868 
G01 X45.8826 Y42.5200 
G01 X45.8693 Y42.4879 
G01 X45.8447 Y42.4633 
G01 X45.8126 Y42.4500 
G01 X45.1174 Y42.4500 
G01 X45.0853 Y42.4633 
G01 X45.0607 Y42.4879 
G01 X45.0474 Y42.5200 
G01 X45.0474 Y44.5868 
G01 X45.0607 Y44.6189 
G01 X45.0853 Y44.6435 
G01 X45.1174 Y44.6568 
G01 X45.2194 Y44.6568 
G01 X45.2194 Y44.7596 
G01 X44.9896 Y44.9894 
G01 X28.0304 Y44.9894 
G01 X27.7756 Y44.7346 
G01 X27.7756 Y44.6568 
G01 X27.8326 Y44.6568 
G01 X27.8647 Y44.6435 
G01 X27.8893 Y44.6189 
G01 X27.9026 Y44.5868 
G01 X27.9026 Y42.5200 
G01 X27.8893 Y42.4879 
G01 X27.8647 Y42.4633 
G01 X27.8326 Y42.4500 
G01 X27.1374 Y42.4500 
G01 X27.1053 Y42.4633 
G01 X27.0807 Y42.4879 
G01 X27.0674 Y42.5200 
G01 X27.0674 Y44.5868 
G01 X27.0807 Y44.6189 
G01 X27.1053 Y44.6435 
G01 X27.1374 Y44.6568 
G01 X27.1944 Y44.6568 
G01 X27.1944 Y44.8933 
G01 X27.2142 Y44.9672 
G01 X27.2525 Y45.0334 
G01 X27.6194 Y45.4004 
G01 X27.6194 Y45.9596 
G01 X26.9896 Y46.5894 
G01 X22.0304 Y46.5894 
G01 X20.1556 Y44.7146 
G01 X20.1556 Y44.6568 
G01 X20.2126 Y44.6568 
G01 X20.2447 Y44.6435 
G01 X20.2693 Y44.6189 
G01 X20.2826 Y44.5868 
G01 X20.2826 Y42.5200 
G01 X20.2693 Y42.4879 
G01 X20.2447 Y42.4633 
G01 X20.2126 Y42.4500 
G01 X19.5174 Y42.4500 
G01 X19.4853 Y42.4633 
G01 X19.4607 Y42.4879 
G01 X19.4474 Y42.5200 
G01 X19.4474 Y43.7894 
G01 X15.6304 Y43.7894 
G01 X5.8006  Y33.9596 
G01 X5.8006  Y21.4004 
G01 X6.9425  Y20.2584 
G01 X6.9808  Y20.1922 
G01 X7.0006  Y20.1183 
G01 X7.0006  Y17.8004 
G01 X7.3425  Y17.4584 
G01 X7.3808  Y17.3922 
G01 X7.4006  Y17.3183 
G01 X7.4006  Y12.6004 
G01 X8.3044  Y11.6966 
G01 X9.6444  Y11.6966 
G01 X9.6444  Y12.3032 
G01 X9.5874  Y12.3032 
G01 X9.5553  Y12.3165 
G01 X9.5307  Y12.3411 
G01 X9.5174  Y12.3732 
G01 X9.5174  Y14.4400 
G01 X9.5307  Y14.4721 
G01 X9.5553  Y14.4967 
G01 X9.5874  Y14.5100 
G01 X10.2826 Y14.5100 
G01 X10.3147 Y14.4967 
G01 X10.3393 Y14.4721 
G01 X10.3526 Y14.4400 
G01 X10.3526 Y12.3732 
G01 X10.3393 Y12.3411 
G01 X10.3147 Y12.3165 
G01 X10.2826 Y12.3032 
G01 X10.2256 Y12.3032 
G01 X10.2256 Y10.5754 
G01 X10.4304 Y10.3706 
G01 X15.7896 Y10.3706 
G01 X17.3053 Y11.8863 
G01 X17.2842 Y11.9228 
G01 X17.2644 Y11.9967 
G01 X17.2644 Y12.3032 
G01 X17.2074 Y12.3032 
G01 X17.1753 Y12.3165 
G01 X17.1507 Y12.3411 
G01 X17.1374 Y12.3732 
G01 X17.1374 Y14.4400 
G01 X17.1507 Y14.4721 
G01 X17.1753 Y14.4967 
G01 X17.2074 Y14.5100 
G01 X17.9026 Y14.5100 
G01 X17.9347 Y14.4967 
G01 X17.9593 Y14.4721 
G01 X17.9726 Y14.4400 
G01 X17.9726 Y12.3732 
G01 X17.9593 Y12.3411 
G01 X17.9347 Y12.3165 
G01 X17.9026 Y12.3032 
G01 X17.8456 Y12.3032 
G01 X17.8456 Y12.1554 
G01 X17.8884 Y12.1125 
G01 X18.0304 Y11.9706 
G01 X22.1896 Y11.9706 
G01 X22.4194 Y12.2004 
G01 X22.4194 Y12.3032 
G01 X22.3874 Y12.3032 
G01 X22.3553 Y12.3165 
G01 X22.3307 Y12.3411 
G01 X22.3174 Y12.3732 
G01 X22.3174 Y14.4400 
G01 X22.3307 Y14.4721 
G01 X22.3553 Y14.4967 
G01 X22.3874 Y14.5100 
G01 X23.0826 Y14.5100 
G01 X23.1147 Y14.4967 
G01 X23.1393 Y14.4721 
G01 X23.1526 Y14.4400 
G01 X23.1526 Y12.3732 
G01 X23.1393 Y12.3411 
G01 X23.1147 Y12.3165 
G01 X23.0826 Y12.3032 
G01 X23.0256 Y12.3032 
G01 X23.0256 Y10.5754 
G01 X23.2304 Y10.3706 
G01 X28.5896 Y10.3706 
G01 X30.1053 Y11.8863 
G01 X30.0842 Y11.9228 
G01 X30.0644 Y11.9967 
G01 X30.0644 Y12.3032 
G01 X30.0074 Y12.3032 
G01 X29.9753 Y12.3165 
G01 X29.9507 Y12.3411 
G01 X29.9374 Y12.3732 
G01 X29.9374 Y14.4400 
G01 X29.9507 Y14.4721 
G01 X29.9753 Y14.4967 
G01 X30.0074 Y14.5100 
G01 X30.7026 Y14.5100 
G01 X30.7347 Y14.4967 
G01 X30.7593 Y14.4721 
G01 X30.7726 Y14.4400 
G01 X30.7726 Y12.3732 
G01 X30.7593 Y12.3411 
G01 X30.7347 Y12.3165 
G01 X30.7026 Y12.3032 
G01 X30.6456 Y12.3032 
G01 X30.6456 Y12.1554 
G01 X30.6884 Y12.1125 
G01 X30.7425 Y12.0584 
G01 X30.8304 Y11.9706 
G01 X34.9896 Y11.9706 
G01 X35.2194 Y12.2004 
G01 X35.2194 Y12.3032 
G01 X35.1874 Y12.3032 
G01 X35.1553 Y12.3165 
G01 X35.1307 Y12.3411 
G01 X35.1174 Y12.3732 
G01 X35.1174 Y14.4400 
G01 X35.1307 Y14.4721 
G01 X35.1553 Y14.4967 
G01 X35.1874 Y14.5100 
G01 X35.8826 Y14.5100 
G01 X35.9147 Y14.4967 
G01 X35.9393 Y14.4721 
G01 X35.9526 Y14.4400 
G01 X35.9526 Y12.3732 
G01 X35.9393 Y12.3411 
G01 X35.9147 Y12.3165 
G01 X35.8826 Y12.3032 
G01 X35.8256 Y12.3032 
G01 X35.8256 Y10.5754 
G01 X36.0304 Y10.3706 
G01 X41.3896 Y10.3706 
G01 X42.9053 Y11.8863 
G01 X42.8842 Y11.9228 
G01 X42.8644 Y11.9967 
G01 X42.8644 Y12.3032 
G01 X42.8074 Y12.3032 
G01 X42.7753 Y12.3165 
G01 X42.7507 Y12.3411 
G01 X42.7374 Y12.3732 
G01 X42.7374 Y14.4400 
G01 X42.7507 Y14.4721 
G01 X42.7753 Y14.4967 
G01 X42.8074 Y14.5100 
G01 X43.5026 Y14.5100 
G01 X43.5347 Y14.4967 
G01 X43.5593 Y14.4721 
G01 X43.5726 Y14.4400 
G01 X43.5726 Y12.3732 
G01 X43.5593 Y12.3411 
G01 X43.5347 Y12.3165 
G01 X43.5026 Y12.3032 
G01 X43.4456 Y12.3032 
G01 X43.4456 Y12.1554 
G01 X43.4884 Y12.1125 
G01 X43.6304 Y11.9706 
G01 X47.7896 Y11.9706 
G01 X48.0194 Y12.2004 
G01 X48.0194 Y12.3032 
G01 X47.9874 Y12.3032 
G01 X47.9553 Y12.3165 
G01 X47.9307 Y12.3411 
G01 X47.9174 Y12.3732 
G01 X47.9174 Y14.4400 
G01 X47.9307 Y14.4721 
G01 X47.9553 Y14.4967 
G01 X47.9874 Y14.5100 
G01 X48.6826 Y14.5100 
G01 X48.7147 Y14.4967 
G01 X48.7393 Y14.4721 
G01 X48.7526 Y14.4400 
G01 X48.7526 Y12.3732 
G01 X48.7393 Y12.3411 
G01 X48.7147 Y12.3165 
G01 X48.6826 Y12.3032 
G01 X48.6256 Y12.3032 
G01 X48.6256 Y10.5754 
G01 X48.8304 Y10.3706 
G01 X54.1896 Y10.3706 
G01 X55.7053 Y11.8863 
G01 X55.6842 Y11.9228 
G01 X55.6644 Y11.9967 
G01 X55.6644 Y12.3032 
G01 X55.6074 Y12.3032 
G01 X55.5753 Y12.3165 
G01 X55.5507 Y12.3411 
G01 X55.5374 Y12.3732 
G01 X55.5374 Y14.4400 
G01 X55.5507 Y14.4721 
G01 X55.5753 Y14.4967 
G01 X55.6074 Y14.5100 
G01 X56.3026 Y14.5100 
G01 X56.3347 Y14.4967 
G01 X56.3593 Y14.4721 
G01 X56.3726 Y14.4400 
G01 X56.3726 Y12.3732 
G01 X56.3593 Y12.3411 
G01 X56.3347 Y12.3165 
G01 X56.3026 Y12.3032 
G01 X56.2456 Y12.3032 
G01 X56.2456 Y12.1554 
G01 X56.2884 Y12.1125 
G01 X56.3425 Y12.0584 
G01 X56.4304 Y11.9706 
G01 X60.5896 Y11.9706 
G01 X60.8194 Y12.2004 
G01 X60.8194 Y12.3032 
G01 X60.7874 Y12.3032 
G01 X60.7553 Y12.3165 
G01 X60.7307 Y12.3411 
G01 X60.7174 Y12.3732 
G01 X60.7174 Y14.4400 
G01 X60.7307 Y14.4721 
G01 X60.7553 Y14.4967 
G01 X60.7874 Y14.5100 
G01 X61.4826 Y14.5100 
G01 X61.5147 Y14.4967 
G01 X61.5393 Y14.4721 
G01 X61.5526 Y14.4400 
G01 X61.5526 Y12.3732 
G01 X61.5393 Y12.3411 
G01 X61.5147 Y12.3165 
G01 X61.4826 Y12.3032 
G01 X61.4256 Y12.3032 
G01 X61.4256 Y10.5754 
G01 X61.6304 Y10.3706 
G01 X66.9896 Y10.3706 
G01 X68.5053 Y11.8863 
G01 X68.4842 Y11.9228 
G01 X68.4644 Y11.9967 
G01 X68.4644 Y12.3032 
G01 X68.4074 Y12.3032 
G01 X68.3753 Y12.3165 
G01 X68.3507 Y12.3411 
G01 X68.3374 Y12.3732 
G01 X68.3374 Y14.4400 
G01 X68.3507 Y14.4721 
G01 X68.3753 Y14.4967 
G01 X68.4074 Y14.5100 
G01 X69.1026 Y14.5100 
G01 X69.1347 Y14.4967 
G01 X69.1593 Y14.4721 
G01 X69.1726 Y14.4400 
G01 X69.1726 Y12.3732 
G01 X69.1593 Y12.3411 
G01 X69.1347 Y12.3165 
G01 X69.1026 Y12.3032 
G01 X69.0456 Y12.3032 
G01 X69.0456 Y12.1554 
G01 X69.0884 Y12.1125 
G01 X69.1425 Y12.0584 
G01 X69.2304 Y11.9706 
G01 X71.9483 Y11.9706 
G01 X72.0222 Y11.9508 
G01 X72.0884 Y11.9125 
G01 X72.5100 Y11.4910 
G01 X73.5174 Y12.4984 
G01 X73.5174 Y14.4400 
G01 X73.5307 Y14.4721 
G01 X73.5553 Y14.4967 
G01 X73.5874 Y14.5100 
G01 X74.2826 Y14.5100 
G01 X74.3147 Y14.4967 
G01 X74.3393 Y14.4721 
G01 X74.3526 Y14.4400 
G01 X74.3526 Y12.3732 
G01 X74.3393 Y12.3411 
G01 X74.3147 Y12.3165 
G01 X74.2826 Y12.3032 
G01 X74.1442 Y12.3032 
G01 X72.9210 Y11.0800 
G01 X73.6304 Y10.3706 
G01 X79.7896 Y10.3706 
G01 X81.2194 Y11.8004 
G01 X81.2194 Y12.3032 
G01 X81.2074 Y12.3032 
G01 X81.1753 Y12.3165 
G01 X81.1507 Y12.3411 
G01 X81.1374 Y12.3732 
G01 X81.1374 Y14.4400 
G01 X81.1507 Y14.4721 
G01 X81.1753 Y14.4967 
G01 X81.2074 Y14.5100 
G01 X81.2194 Y14.5100 
G01 X81.2194 Y14.5183 
G01 X81.2392 Y14.5922 
G01 X81.2775 Y14.6584 
G01 X81.3316 Y14.7125 
G01 X83.6194 Y17.0004 
G01 X83.6194 Y20.9183 
G01 X83.6392 Y20.9922 
G01 X83.6775 Y21.0584 
G01 X83.7316 Y21.1125 
G01 X84.8194 Y22.2004 
G01 X84.8194 Y27.5596 
G01 X84.1896 Y28.1894 
G01 X8.2717  Y28.1894 
G01 X8.1978  Y28.2092 
G01 X8.1316  Y28.2475 
G01 X8.0775  Y28.3016 
G01 X8.0392  Y28.3678 
G01 X8.0194  Y28.4417 
G01 X8.0194  Y28.5183 
G01 X8.0392  Y28.5922 
G01 X8.0574  Y28.6237 
G01 X8.0574  Y29.2816 
G01 X7.8734  Y29.2816 
G01 X7.8413  Y29.2949 
G01 X7.8167  Y29.3195 
G01 X7.8034  Y29.3516 
G01 X7.8034  Y31.1644 
G01 X7.8167  Y31.1965 
G01 X7.8413  Y31.2211 
G01 X7.8734  Y31.2344 
G01 X8.8226  Y31.2344 
G01 X8.8547  Y31.2211 
G01 X8.8793  Y31.1965 
G01 X8.8926  Y31.1644 
G01 X8.8926  Y29.3516 
G01 X8.8793  Y29.3195 
G01 X8.8547  Y29.2949 
G01 X8.8226  Y29.2816 
G01 X8.6386  Y29.2816 
G01 X8.6386  Y28.7706 
G01 X11.2574 Y28.7706 
G01 X11.2574 Y29.2816 
G01 X11.0734 Y29.2816 
G01 X11.0413 Y29.2949 
G01 X11.0167 Y29.3195 
G01 X11.0034 Y29.3516 
G01 X11.0034 Y31.1644 
G01 X11.0167 Y31.1965 
G01 X11.0413 Y31.2211 
G01 X11.0734 Y31.2344 
G01 X12.0226 Y31.2344 
G01 X12.0547 Y31.2211 
G01 X12.0793 Y31.1965 
G01 X12.0926 Y31.1644 
G01 X12.0926 Y29.3516 
G01 X12.0793 Y29.3195 
G01 X12.0547 Y29.2949 
G01 X12.0226 Y29.2816 
G01 X11.8386 Y29.2816 
G01 X11.8386 Y28.7706 
G01 X14.4574 Y28.7706 
G01 X14.4574 Y29.2816 
G01 X14.2734 Y29.2816 
G01 X14.2413 Y29.2949 
G01 X14.2167 Y29.3195 
G01 X14.2034 Y29.3516 
G01 X14.2034 Y31.1644 
G01 X14.2167 Y31.1965 
G01 X14.2413 Y31.2211 
G01 X14.2734 Y31.2344 
G01 X15.2226 Y31.2344 
G01 X15.2547 Y31.2211 
G01 X15.2793 Y31.1965 
G01 X15.2926 Y31.1644 
G01 X15.2926 Y29.3516 
G01 X15.2793 Y29.3195 
G01 X15.2547 Y29.2949 
G01 X15.2226 Y29.2816 
G01 X15.0386 Y29.2816 
G01 X15.0386 Y28.7706 
G01 X17.6574 Y28.7706 
G01 X17.6574 Y29.2816 
G01 X17.4734 Y29.2816 
G01 X17.4413 Y29.2949 
G01 X17.4167 Y29.3195 
G01 X17.4034 Y29.3516 
G01 X17.4034 Y31.1644 
G01 X17.4167 Y31.1965 
G01 X17.4413 Y31.2211 
G01 X17.4734 Y31.2344 
G01 X18.4226 Y31.2344 
G01 X18.4547 Y31.2211 
G01 X18.4793 Y31.1965 
G01 X18.4926 Y31.1644 
G01 X18.4926 Y29.3516 
G01 X18.4793 Y29.3195 
G01 X18.4547 Y29.2949 
G01 X18.4226 Y29.2816 
G01 X18.2386 Y29.2816 
G01 X18.2386 Y28.7706 
G01 X20.8574 Y28.7706 
G01 X20.8574 Y29.2816 
G01 X20.6734 Y29.2816 
G01 X20.6413 Y29.2949 
G01 X20.6167 Y29.3195 
G01 X20.6034 Y29.3516 
G01 X20.6034 Y31.1644 
G01 X20.6167 Y31.1965 
G01 X20.6413 Y31.2211 
G01 X20.6734 Y31.2344 
G01 X21.6226 Y31.2344 
G01 X21.6547 Y31.2211 
G01 X21.6793 Y31.1965 
G01 X21.6926 Y31.1644 
G01 X21.6926 Y29.3516 
G01 X21.6793 Y29.3195 
G01 X21.6547 Y29.2949 
G01 X21.6226 Y29.2816 
G01 X21.4386 Y29.2816 
G01 X21.4386 Y28.7706 
G01 X24.0574 Y28.7706 
G01 X24.0574 Y29.2816 
G01 X23.8734 Y29.2816 
G01 X23.8413 Y29.2949 
G01 X23.8167 Y29.3195 
G01 X23.8034 Y29.3516 
G01 X23.8034 Y31.1644 
G01 X23.8167 Y31.1965 
G01 X23.8413 Y31.2211 
G01 X23.8734 Y31.2344 
G01 X24.8226 Y31.2344 
G01 X24.8547 Y31.2211 
G01 X24.8793 Y31.1965 
G01 X24.8926 Y31.1644 
G01 X24.8926 Y29.3516 
G01 X24.8793 Y29.3195 
G01 X24.8547 Y29.2949 
G01 X24.8226 Y29.2816 
G01 X24.6386 Y29.2816 
G01 X24.6386 Y28.7706 
G01 X27.2574 Y28.7706 
G01 X27.2574 Y29.2816 
G01 X27.0734 Y29.2816 
G01 X27.0413 Y29.2949 
G01 X27.0167 Y29.3195 
G01 X27.0034 Y29.3516 
G01 X27.0034 Y31.1644 
G01 X27.0167 Y31.1965 
G01 X27.0413 Y31.2211 
G01 X27.0734 Y31.2344 
G01 X28.0226 Y31.2344 
G01 X28.0547 Y31.2211 
G01 X28.0793 Y31.1965 
G01 X28.0926 Y31.1644 
G01 X28.0926 Y29.3516 
G01 X28.0793 Y29.3195 
G01 X28.0547 Y29.2949 
G01 X28.0226 Y29.2816 
G01 X27.8386 Y29.2816 
G01 X27.8386 Y28.7706 
G01 X30.4574 Y28.7706 
G01 X30.4574 Y29.2816 
G01 X30.2734 Y29.2816 
G01 X30.2413 Y29.2949 
G01 X30.2167 Y29.3195 
G01 X30.2034 Y29.3516 
G01 X30.2034 Y31.1644 
G01 X30.2167 Y31.1965 
G01 X30.2413 Y31.2211 
G01 X30.2734 Y31.2344 
G01 X31.2226 Y31.2344 
G01 X31.2547 Y31.2211 
G01 X31.2793 Y31.1965 
G01 X31.2926 Y31.1644 
G01 X31.2926 Y29.3516 
G01 X31.2793 Y29.3195 
G01 X31.2547 Y29.2949 
G01 X31.2226 Y29.2816 
G01 X31.0386 Y29.2816 
G01 X31.0386 Y28.7706 
G01 X33.6574 Y28.7706 
G01 X33.6574 Y29.2816 
G01 X33.4734 Y29.2816 
G01 X33.4413 Y29.2949 
G01 X33.4167 Y29.3195 
G01 X33.4034 Y29.3516 
G01 X33.4034 Y31.1644 
G01 X33.4167 Y31.1965 
G01 X33.4413 Y31.2211 
G01 X33.4734 Y31.2344 
G01 X34.4226 Y31.2344 
G01 X34.4547 Y31.2211 
G01 X34.4793 Y31.1965 
G01 X34.4926 Y31.1644 
G01 X34.4926 Y29.3516 
G01 X34.4793 Y29.3195 
G01 X34.4547 Y29.2949 
G01 X34.4226 Y29.2816 
G01 X34.2386 Y29.2816 
G01 X34.2386 Y28.7706 
G01 X36.8574 Y28.7706 
G01 X36.8574 Y29.2816 
G01 X36.6734 Y29.2816 
G01 X36.6413 Y29.2949 
G01 X36.6167 Y29.3195 
G01 X36.6034 Y29.3516 
G01 X36.6034 Y31.1644 
G01 X36.6167 Y31.1965 
G01 X36.6413 Y31.2211 
G01 X36.6734 Y31.2344 
G01 X37.6226 Y31.2344 
G01 X37.6547 Y31.2211 
G01 X37.6793 Y31.1965 
G01 X37.6926 Y31.1644 
G01 X37.6926 Y29.3516 
G01 X37.6793 Y29.3195 
G01 X37.6547 Y29.2949 
G01 X37.6226 Y29.2816 
G01 X37.4386 Y29.2816 
G01 X37.4386 Y28.7706 
G01 X40.0574 Y28.7706 
G01 X40.0574 Y29.2816 
G01 X39.8734 Y29.2816 
G01 X39.8413 Y29.2949 
G01 X39.8167 Y29.3195 
G01 X39.8034 Y29.3516 
G01 X39.8034 Y31.1644 
G01 X39.8167 Y31.1965 
G01 X39.8413 Y31.2211 
G01 X39.8734 Y31.2344 
G01 X40.8226 Y31.2344 
G01 X40.8547 Y31.2211 
G01 X40.8793 Y31.1965 
G01 X40.8926 Y31.1644 
G01 X40.8926 Y29.3516 
G01 X40.8793 Y29.3195 
G01 X40.8547 Y29.2949 
G01 X40.8226 Y29.2816 
G01 X40.6386 Y29.2816 
G01 X40.6386 Y28.7706 
G01 X43.2574 Y28.7706 
G01 X43.2574 Y29.2816 
G01 X43.0734 Y29.2816 
G01 X43.0413 Y29.2949 
G01 X43.0167 Y29.3195 
G01 X43.0034 Y29.3516 
G01 X43.0034 Y31.1644 
G01 X43.0167 Y31.1965 
G01 X43.0413 Y31.2211 
G01 X43.0734 Y31.2344 
G01 X44.0226 Y31.2344 
G01 X44.0547 Y31.2211 
G01 X44.0793 Y31.1965 
G01 X44.0926 Y31.1644 
G01 X44.0926 Y29.3516 
G01 X44.0793 Y29.3195 
G01 X44.0547 Y29.2949 
G01 X44.0226 Y29.2816 
G01 X43.8386 Y29.2816 
G01 X43.8386 Y28.7706 
G01 X46.4574 Y28.7706 
G01 X46.4574 Y29.2816 
G01 X46.2734 Y29.2816 
G01 X46.2413 Y29.2949 
G01 X46.2167 Y29.3195 
G01 X46.2034 Y29.3516 
G01 X46.2034 Y31.1644 
G01 X46.2167 Y31.1965 
G01 X46.2413 Y31.2211 
G01 X46.2734 Y31.2344 
G01 X47.2226 Y31.2344 
G01 X47.2547 Y31.2211 
G01 X47.2793 Y31.1965 
G01 X47.2926 Y31.1644 
G01 X47.2926 Y29.3516 
G01 X47.2793 Y29.3195 
G01 X47.2547 Y29.2949 
G01 X47.2226 Y29.2816 
G01 X47.0386 Y29.2816 
G01 X47.0386 Y28.7706 
G01 X49.6574 Y28.7706 
G01 X49.6574 Y29.2816 
G01 X49.4734 Y29.2816 
G01 X49.4413 Y29.2949 
G01 X49.4167 Y29.3195 
G01 X49.4034 Y29.3516 
G01 X49.4034 Y31.1644 
G01 X49.4167 Y31.1965 
G01 X49.4413 Y31.2211 
G01 X49.4734 Y31.2344 
G01 X50.4226 Y31.2344 
G01 X50.4547 Y31.2211 
G01 X50.4793 Y31.1965 
G01 X50.4926 Y31.1644 
G01 X50.4926 Y29.3516 
G01 X50.4793 Y29.3195 
G01 X50.4547 Y29.2949 
G01 X50.4226 Y29.2816 
G01 X50.2386 Y29.2816 
G01 X50.2386 Y28.7706 
G01 X52.8574 Y28.7706 
G01 X52.8574 Y29.2816 
G01 X52.6734 Y29.2816 
G01 X52.6413 Y29.2949 
G01 X52.6167 Y29.3195 
G01 X52.6034 Y29.3516 
G01 X52.6034 Y31.1644 
G01 X52.6167 Y31.1965 
G01 X52.6413 Y31.2211 
G01 X52.6734 Y31.2344 
G01 X53.6226 Y31.2344 
G01 X53.6547 Y31.2211 
G01 X53.6793 Y31.1965 
G01 X53.6926 Y31.1644 
G01 X53.6926 Y29.3516 
G01 X53.6793 Y29.3195 
G01 X53.6547 Y29.2949 
G01 X53.6226 Y29.2816 
G01 X53.4386 Y29.2816 
G01 X53.4386 Y28.7706 
G01 X56.0574 Y28.7706 
G01 X56.0574 Y29.2816 
G01 X55.8734 Y29.2816 
G01 X55.8413 Y29.2949 
G01 X55.8167 Y29.3195 
G01 X55.8034 Y29.3516 
G01 X55.8034 Y31.1644 
G01 X55.8167 Y31.1965 
G01 X55.8413 Y31.2211 
G01 X55.8734 Y31.2344 
G01 X56.8226 Y31.2344 
G01 X56.8547 Y31.2211 
G01 X56.8793 Y31.1965 
G01 X56.8926 Y31.1644 
G01 X56.8926 Y29.3516 
G01 X56.8793 Y29.3195 
G01 X56.8547 Y29.2949 
G01 X56.8226 Y29.2816 
G01 X56.6386 Y29.2816 
G01 X56.6386 Y28.7706 
G01 X59.2574 Y28.7706 
G01 X59.2574 Y29.2816 
G01 X59.0734 Y29.2816 
G01 X59.0413 Y29.2949 
G01 X59.0167 Y29.3195 
G01 X59.0034 Y29.3516 
G01 X59.0034 Y31.1644 
G01 X59.0167 Y31.1965 
G01 X59.0413 Y31.2211 
G01 X59.0734 Y31.2344 
G01 X60.0226 Y31.2344 
G01 X60.0547 Y31.2211 
G01 X60.0793 Y31.1965 
G01 X60.0926 Y31.1644 
G01 X60.0926 Y29.3516 
G01 X60.0793 Y29.3195 
G01 X60.0547 Y29.2949 
G01 X60.0226 Y29.2816 
G01 X59.8386 Y29.2816 
G01 X59.8386 Y28.7706 
G01 X62.4574 Y28.7706 
G01 X62.4574 Y29.2816 
G01 X62.2734 Y29.2816 
G01 X62.2413 Y29.2949 
G01 X62.2167 Y29.3195 
G01 X62.2034 Y29.3516 
G01 X62.2034 Y31.1644 
G01 X62.2167 Y31.1965 
G01 X62.2413 Y31.2211 
G01 X62.2734 Y31.2344 
G01 X63.2226 Y31.2344 
G01 X63.2547 Y31.2211 
G01 X63.2793 Y31.1965 
G01 X63.2926 Y31.1644 
G01 X63.2926 Y29.3516 
G01 X63.2793 Y29.3195 
G01 X63.2547 Y29.2949 
G01 X63.2226 Y29.2816 
G01 X63.0386 Y29.2816 
G01 X63.0386 Y28.7706 
G01 X65.6574 Y28.7706 
G01 X65.6574 Y29.2816 
G01 X65.4734 Y29.2816 
G01 X65.4413 Y29.2949 
G01 X65.4167 Y29.3195 
G01 X65.4034 Y29.3516 
G01 X65.4034 Y31.1644 
G01 X65.4167 Y31.1965 
G01 X65.4413 Y31.2211 
G01 X65.4734 Y31.2344 
G01 X66.4226 Y31.2344 
G01 X66.4547 Y31.2211 
G01 X66.4793 Y31.1965 
G01 X66.4926 Y31.1644 
G01 X66.4926 Y29.3516 
G01 X66.4793 Y29.3195 
G01 X66.4547 Y29.2949 
G01 X66.4226 Y29.2816 
G01 X66.2386 Y29.2816 
G01 X66.2386 Y28.7706 
G01 X68.8574 Y28.7706 
G01 X68.8574 Y29.2816 
G01 X68.6734 Y29.2816 
G01 X68.6413 Y29.2949 
G01 X68.6167 Y29.3195 
G01 X68.6034 Y29.3516 
G01 X68.6034 Y31.1644 
G01 X68.6167 Y31.1965 
G01 X68.6413 Y31.2211 
G01 X68.6734 Y31.2344 
G01 X69.6226 Y31.2344 
G01 X69.6547 Y31.2211 
G01 X69.6793 Y31.1965 
G01 X69.6926 Y31.1644 
G01 X69.6926 Y29.3516 
G01 X69.6793 Y29.3195 
G01 X69.6547 Y29.2949 
G01 X69.6226 Y29.2816 
G01 X69.4386 Y29.2816 
G01 X69.4386 Y28.7706 
G01 X72.0574 Y28.7706 
G01 X72.0574 Y29.2816 
G01 X71.8734 Y29.2816 
G01 X71.8413 Y29.2949 
G01 X71.8167 Y29.3195 
G01 X71.8034 Y29.3516 
G01 X71.8034 Y31.1644 
G01 X71.8167 Y31.1965 
G01 X71.8413 Y31.2211 
G01 X71.8734 Y31.2344 
G01 X72.8226 Y31.2344 
G01 X72.8547 Y31.2211 
G01 X72.8793 Y31.1965 
G01 X72.8926 Y31.1644 
G01 X72.8926 Y29.3516 
G01 X72.8793 Y29.3195 
G01 X72.8547 Y29.2949 
G01 X72.8226 Y29.2816 
G01 X72.6386 Y29.2816 
G01 X72.6386 Y28.7706 
G01 X75.2574 Y28.7706 
G01 X75.2574 Y29.2816 
G01 X75.0734 Y29.2816 
G01 X75.0413 Y29.2949 
G01 X75.0167 Y29.3195 
G01 X75.0034 Y29.3516 
G01 X75.0034 Y31.1644 
G01 X75.0167 Y31.1965 
G01 X75.0413 Y31.2211 
G01 X75.0734 Y31.2344 
G01 X76.0226 Y31.2344 
G01 X76.0547 Y31.2211 
G01 X76.0793 Y31.1965 
G01 X76.0926 Y31.1644 
G01 X76.0926 Y29.3516 
G01 X76.0793 Y29.3195 
G01 X76.0547 Y29.2949 
G01 X76.0226 Y29.2816 
G01 X75.8386 Y29.2816 
G01 X75.8386 Y28.7706 
G01 X78.4574 Y28.7706 
G01 X78.4574 Y29.2816 
G01 X78.2734 Y29.2816 
G01 X78.2413 Y29.2949 
G01 X78.2167 Y29.3195 
G01 X78.2034 Y29.3516 
G01 X78.2034 Y31.1644 
G01 X78.2167 Y31.1965 
G01 X78.2413 Y31.2211 
G01 X78.2734 Y31.2344 
G01 X79.2226 Y31.2344 
G01 X79.2547 Y31.2211 
G01 X79.2793 Y31.1965 
G01 X79.2926 Y31.1644 
G01 X79.2926 Y29.3516 
G01 X79.2793 Y29.3195 
G01 X79.2547 Y29.2949 
G01 X79.2226 Y29.2816 
G01 X79.0386 Y29.2816 
G01 X79.0386 Y28.7706 
G01 X81.6574 Y28.7706 
G01 X81.6574 Y29.2816 
G01 X81.4734 Y29.2816 
G01 X81.4413 Y29.2949 
G01 X81.4167 Y29.3195 
G01 X81.4034 Y29.3516 
G01 X81.4034 Y31.1644 
G01 X81.4167 Y31.1965 
G01 X81.4413 Y31.2211 
G01 X81.4734 Y31.2344 
G01 X82.4226 Y31.2344 
G01 X82.4547 Y31.2211 
G01 X82.4793 Y31.1965 
G01 X82.4926 Y31.1644 
G01 X82.4926 Y29.3516 
G01 X82.4793 Y29.3195 
G01 X82.4547 Y29.2949 
G01 X82.4226 Y29.2816 
G01 X82.2386 Y29.2816 
G01 X82.2386 Y28.7706 
G01 X84.3483 Y28.7706 
G01 X84.4222 Y28.7508 
G01 X84.4884 Y28.7125 
G01 X85.2884 Y27.9125 
G01 X85.3425 Y27.8584 
G01 X85.3808 Y27.7922 
G01 X85.4006 Y27.7183 
G01 X85.4006 Y22.0417 
G01 X85.3808 Y21.9678 
G01 X85.3425 Y21.9016 
G01 X84.2006 Y20.7596 
G01 X84.2006 Y16.8417 
G01 X84.1808 Y16.7678 
G01 X84.1425 Y16.7016 
G01 X81.9362 Y14.4952 
G01 X81.9593 Y14.4721 
G01 X81.9726 Y14.4400 
G01 X81.9726 Y12.3732 
G01 X81.9593 Y12.3411 
G01 X81.9347 Y12.3165 
G01 X81.9026 Y12.3032 
G01 X81.8006 Y12.3032 
G01 X81.8006 Y11.6417 
G01 X81.7808 Y11.5678 
G01 X81.7425 Y11.5016 
G01 X81.6884 Y11.4475 
G01 X80.0884 Y9.8475  
G01 X80.0222 Y9.8092  
G01 X79.9483 Y9.7894  
G01 X73.4717 Y9.7894  
G01 X73.3978 Y9.8092  
G01 X73.3316 Y9.8475  
G01 X73.2775 Y9.9016  
G01 X72.3316 Y10.8475 
G01 X72.2775 Y10.9016 
G01 X71.7896 Y11.3894 
G01 X69.0717 Y11.3894 
G01 X68.9978 Y11.4092 
G01 X68.9316 Y11.4475 
G01 X68.9100 Y11.4690 
G01 X67.2884 Y9.8475  
G01 X67.2222 Y9.8092  
G01 X67.1483 Y9.7894  
G01 X61.4717 Y9.7894  
G01 X61.3978 Y9.8092  
G01 X61.3316 Y9.8475  
G01 X61.2775 Y9.9016  
G01 X60.9025 Y10.2766 
G01 X60.8642 Y10.3428 
G01 X60.8444 Y10.4167 
G01 X60.8444 Y11.4220 
G01 X60.8222 Y11.4092 
G01 X60.7483 Y11.3894 
G01 X56.2717 Y11.3894 
G01 X56.1978 Y11.4092 
G01 X56.1316 Y11.4475 
G01 X56.1100 Y11.4690 
G01 X54.4884 Y9.8475  
G01 X54.4222 Y9.8092  
G01 X54.3483 Y9.7894  
G01 X48.6717 Y9.7894  
G01 X48.5978 Y9.8092  
G01 X48.5316 Y9.8475  
G01 X48.4775 Y9.9016  
G01 X48.1025 Y10.2766 
G01 X48.0642 Y10.3428 
G01 X48.0444 Y10.4167 
G01 X48.0444 Y11.4220 
G01 X48.0222 Y11.4092 
G01 X47.9483 Y11.3894 
G01 X43.4717 Y11.3894 
G01 X43.3978 Y11.4092 
G01 X43.3316 Y11.4475 
G01 X43.3100 Y11.4690 
G01 X41.6884 Y9.8475  
G01 X41.6222 Y9.8092  
G01 X41.5483 Y9.7894  
G01 X35.8717 Y9.7894  
G01 X35.7978 Y9.8092  
G01 X35.7316 Y9.8475  
G01 X35.6775 Y9.9016  
G01 X35.3025 Y10.2766 
G01 X35.2642 Y10.3428 
G01 X35.2444 Y10.4167 
G01 X35.2444 Y11.4220 
G01 X35.2222 Y11.4092 
G01 X35.1483 Y11.3894 
G01 X30.6717 Y11.3894 
G01 X30.5978 Y11.4092 
G01 X30.5316 Y11.4475 
G01 X30.5100 Y11.4690 
G01 X28.8884 Y9.8475  
G01 X28.8222 Y9.8092  
G01 X28.7483 Y9.7894  
G01 X23.0717 Y9.7894  
G01 X22.9978 Y9.8092  
G01 X22.9316 Y9.8475  
G01 X22.8775 Y9.9016  
G01 X22.5025 Y10.2766 
G01 X22.4642 Y10.3428 
G01 X22.4444 Y10.4167 
G01 X22.4444 Y11.4220 
G01 X22.4222 Y11.4092 
G01 X22.3483 Y11.3894 
G01 X17.8717 Y11.3894 
G01 X17.7978 Y11.4092 
G01 X17.7316 Y11.4475 
G01 X17.7100 Y11.4690 
G01 X16.0884 Y9.8475  
G01 X16.0222 Y9.8092  
G01 X15.9483 Y9.7894  
G01 X10.2717 Y9.7894  
G01 X10.1978 Y9.8092  
G01 X10.1316 Y9.8475  
G01 X10.0775 Y9.9016  
G01 X9.7025  Y10.2766 
G01 X9.6642  Y10.3428 
G01 X9.6444  Y10.4167 
G01 X9.6444  Y11.1154 
G01 X8.1457  Y11.1154 
G01 X8.0718  Y11.1352 
G01 X8.0056  Y11.1735 
G01 X6.9316  Y12.2475 
G01 X6.8775  Y12.3016 
G00 Z2.5400  
G00 X8.2607  Y12.3411 
G01 Z-0.0200 F254   
G01 X8.2474  Y12.3732 F500   
G01 X8.2474  Y14.4400 
G01 X8.2607  Y14.4721 
G01 X8.2853  Y14.4967 
G01 X8.3174  Y14.5100 
G01 X8.3744  Y14.5100 
G01 X8.3744  Y16.8046 
G01 X7.3316  Y17.8475 
G01 X7.2775  Y17.9016 
G01 X7.2392  Y17.9678 
G01 X7.2194  Y18.0417 
G01 X7.2194  Y20.3596 
G01 X6.1316  Y21.4475 
G01 X6.0775  Y21.5016 
G01 X6.0392  Y21.5678 
G01 X6.0194  Y21.6417 
G01 X6.0194  Y33.7183 
G01 X6.0392  Y33.7922 
G01 X6.0775  Y33.8584 
G01 X13.2775 Y41.0584 
G01 X13.3316 Y41.1125 
G01 X13.3978 Y41.1508 
G01 X13.4717 Y41.1706 
G01 X20.9896 Y41.1706 
G01 X22.1144 Y42.2954 
G01 X22.1144 Y42.4500 
G01 X22.0574 Y42.4500 
G01 X22.0253 Y42.4633 
G01 X22.0007 Y42.4879 
G01 X21.9874 Y42.5200 
G01 X21.9874 Y44.5868 
G01 X22.0007 Y44.6189 
G01 X22.0253 Y44.6435 
G01 X22.0574 Y44.6568 
G01 X22.7526 Y44.6568 
G01 X22.7847 Y44.6435 
G01 X22.8093 Y44.6189 
G01 X22.8226 Y44.5868 
G01 X22.8226 Y42.5200 
G01 X22.8093 Y42.4879 
G01 X22.7847 Y42.4633 
G01 X22.7526 Y42.4500 
G01 X22.6956 Y42.4500 
G01 X22.6956 Y42.1367 
G01 X22.6758 Y42.0628 
G01 X22.6375 Y41.9966 
G01 X21.3425 Y40.7016 
G01 X21.2884 Y40.6475 
G01 X21.2222 Y40.6092 
G01 X21.1483 Y40.5894 
G01 X13.6304 Y40.5894 
G01 X6.6006  Y33.5596 
G01 X6.6006  Y21.8004 
G01 X7.7425  Y20.6584 
G01 X7.7808  Y20.5922 
G01 X7.8006  Y20.5183 
G01 X7.8006  Y18.2004 
G01 X8.8975  Y17.1034 
G01 X8.9358  Y17.0372 
G01 X8.9556  Y16.9633 
G01 X8.9556  Y14.5100 
G01 X9.0126  Y14.5100 
G01 X9.0447  Y14.4967 
G01 X9.0693  Y14.4721 
G01 X9.0826  Y14.4400 
G01 X9.0826  Y12.3732 
G01 X9.0693  Y12.3411 
G01 X9.0447  Y12.3165 
G01 X9.0126  Y12.3032 
G01 X8.3174  Y12.3032 
G01 X8.2853  Y12.3165 
G01 X8.2607  Y12.3411 
G00 Z2.5400  
G00 X10.8007 Y12.3411 
G01 Z-0.0200 F254   
G01 X10.7874 Y12.3732 F500   
G01 X10.7874 Y14.4400 
G01 X10.8007 Y14.4721 
G01 X10.8253 Y14.4967 
G01 X10.8574 Y14.5100 
G01 X11.5526 Y14.5100 
G01 X11.5847 Y14.4967 
G01 X11.6093 Y14.4721 
G01 X11.6226 Y14.4400 
G01 X11.6226 Y12.3732 
G01 X11.6093 Y12.3411 
G01 X11.5847 Y12.3165 
G01 X11.5526 Y12.3032 
G01 X11.4956 Y12.3032 
G01 X11.4956 Y11.8706 
G01 X11.6306 Y11.8706 
G01 X11.6627 Y11.8573 
G01 X11.6873 Y11.8327 
G01 X11.7006 Y11.8006 
G01 X11.7006 Y10.7594 
G01 X11.6873 Y10.7273 
G01 X11.6627 Y10.7027 
G01 X11.6306 Y10.6894 
G01 X10.5894 Y10.6894 
G01 X10.5573 Y10.7027 
G01 X10.5327 Y10.7273 
G01 X10.5194 Y10.7594 
G01 X10.5194 Y11.8006 
G01 X10.5327 Y11.8327 
G01 X10.5573 Y11.8573 
G01 X10.5894 Y11.8706 
G01 X10.9144 Y11.8706 
G01 X10.9144 Y12.3032 
G01 X10.8574 Y12.3032 
G01 X10.8253 Y12.3165 
G01 X10.8007 Y12.3411 
G00 Z2.5400  
G00 X12.0707 Y12.3411 
G01 Z-0.0200 F254   
G01 X12.0574 Y12.3732 F500   
G01 X12.0574 Y14.4400 
G01 X12.0707 Y14.4721 
G01 X12.0953 Y14.4967 
G01 X12.1274 Y14.5100 
G01 X12.8226 Y14.5100 
G01 X12.8547 Y14.4967 
G01 X12.8793 Y14.4721 
G01 X12.8926 Y14.4400 
G01 X12.8926 Y12.3732 
G01 X12.8793 Y12.3411 
G01 X12.8547 Y12.3165 
G01 X12.8226 Y12.3032 
G01 X12.7656 Y12.3032 
G01 X12.7656 Y11.8706 
G01 X13.2306 Y11.8706 
G01 X13.2627 Y11.8573 
G01 X13.2873 Y11.8327 
G01 X13.3006 Y11.8006 
G01 X13.3006 Y10.7594 
G01 X13.2873 Y10.7273 
G01 X13.2627 Y10.7027 
G01 X13.2306 Y10.6894 
G01 X12.1894 Y10.6894 
G01 X12.1573 Y10.7027 
G01 X12.1327 Y10.7273 
G01 X12.1194 Y10.7594 
G01 X12.1194 Y11.8006 
G01 X12.1327 Y11.8327 
G01 X12.1573 Y11.8573 
G01 X12.1844 Y11.8685 
G01 X12.1844 Y12.3032 
G01 X12.1274 Y12.3032 
G01 X12.0953 Y12.3165 
G01 X12.0707 Y12.3411 
G00 Z2.5400  
G00 X13.3407 Y12.3411 
G01 Z-0.0200 F254   
G01 X13.3274 Y12.3732 F500   
G01 X13.3274 Y14.4400 
G01 X13.3407 Y14.4721 
G01 X13.3653 Y14.4967 
G01 X13.3974 Y14.5100 
G01 X13.4544 Y14.5100 
G01 X13.4544 Y14.9946 
G01 X11.8596 Y16.5894 
G01 X9.8717  Y16.5894 
G01 X9.7978  Y16.6092 
G01 X9.7316  Y16.6475 
G01 X8.4775  Y17.9016 
G01 X8.4392  Y17.9678 
G01 X8.4194  Y18.0417 
G01 X8.4194  Y18.4500 
G01 X8.3174  Y18.4500 
G01 X8.2853  Y18.4633 
G01 X8.2607  Y18.4879 
G01 X8.2474  Y18.5200 
G01 X8.2474  Y20.5316 
G01 X6.9316  Y21.8475 
G01 X6.8775  Y21.9016 
G01 X6.8392  Y21.9678 
G01 X6.8194  Y22.0417 
G01 X6.8194  Y33.3183 
G01 X6.8392  Y33.3922 
G01 X6.8775  Y33.4584 
G01 X13.6775 Y40.2584 
G01 X13.7316 Y40.3125 
G01 X13.7978 Y40.3508 
G01 X13.8717 Y40.3706 
G01 X21.7196 Y40.3706 
G01 X23.3844 Y42.0354 
G01 X23.3844 Y42.4500 
G01 X23.3274 Y42.4500 
G01 X23.2953 Y42.4633 
G01 X23.2707 Y42.4879 
G01 X23.2574 Y42.5200 
G01 X23.2574 Y44.5868 
G01 X23.2707 Y44.6189 
G01 X23.2953 Y44.6435 
G01 X23.3274 Y44.6568 
G01 X24.0226 Y44.6568 
G01 X24.0547 Y44.6435 
G01 X24.0793 Y44.6189 
G01 X24.0926 Y44.5868 
G01 X24.0926 Y42.5200 
G01 X24.0793 Y42.4879 
G01 X24.0547 Y42.4633 
G01 X24.0226 Y42.4500 
G01 X23.9656 Y42.4500 
G01 X23.9656 Y42.0354 
G01 X24.8304 Y41.1706 
G01 X26.7483 Y41.1706 
G01 X26.8222 Y41.1508 
G01 X26.8884 Y41.1125 
G01 X28.7100 Y39.2910 
G01 X29.6775 Y40.2584 
G01 X29.7316 Y40.3125 
G01 X29.7978 Y40.3508 
G01 X29.8717 Y40.3706 
G01 X47.3196 Y40.3706 
G01 X48.9844 Y42.0354 
G01 X48.9844 Y42.4500 
G01 X48.9274 Y42.4500 
G01 X48.8953 Y42.4633 
G01 X48.8707 Y42.4879 
G01 X48.8574 Y42.5200 
G01 X48.8574 Y44.5868 
G01 X48.8707 Y44.6189 
G01 X48.8953 Y44.6435 
G01 X48.9274 Y44.6568 
G01 X49.6226 Y44.6568 
G01 X49.6547 Y44.6435 
G01 X49.6793 Y44.6189 
G01 X49.6926 Y44.5868 
G01 X49.6926 Y42.5200 
G01 X49.6793 Y42.4879 
G01 X49.6547 Y42.4633 
G01 X49.6226 Y42.4500 
G01 X49.5656 Y42.4500 
G01 X49.5656 Y42.0354 
G01 X50.4304 Y41.1706 
G01 X52.3483 Y41.1706 
G01 X52.4222 Y41.1508 
G01 X52.4884 Y41.1125 
G01 X54.3100 Y39.2910 
G01 X55.2775 Y40.2584 
G01 X55.3316 Y40.3125 
G01 X55.3978 Y40.3508 
G01 X55.4717 Y40.3706 
G01 X72.9196 Y40.3706 
G01 X74.5844 Y42.0354 
G01 X74.5844 Y42.4500 
G01 X74.5274 Y42.4500 
G01 X74.4953 Y42.4633 
G01 X74.4707 Y42.4879 
G01 X74.4574 Y42.5200 
G01 X74.4574 Y44.5868 
G01 X74.4707 Y44.6189 
G01 X74.4953 Y44.6435 
G01 X74.5274 Y44.6568 
G01 X75.2226 Y44.6568 
G01 X75.2547 Y44.6435 
G01 X75.2793 Y44.6189 
G01 X75.2926 Y44.5868 
G01 X75.2926 Y42.5200 
G01 X75.2793 Y42.4879 
G01 X75.2547 Y42.4633 
G01 X75.2226 Y42.4500 
G01 X75.1656 Y42.4500 
G01 X75.1656 Y42.0354 
G01 X76.0304 Y41.1706 
G01 X78.7483 Y41.1706 
G01 X78.8222 Y41.1508 
G01 X78.8884 Y41.1125 
G01 X79.9100 Y40.0910 
G01 X81.2194 Y41.4004 
G01 X81.2194 Y45.1596 
G01 X80.0775 Y46.3016 
G01 X80.0392 Y46.3678 
G01 X80.0194 Y46.4417 
G01 X80.0194 Y49.9596 
G01 X78.9896 Y50.9894 
G01 X75.2304 Y50.9894 
G01 X74.8884 Y50.6475 
G01 X74.8222 Y50.6092 
G01 X74.7483 Y50.5894 
G01 X65.8717 Y50.5894 
G01 X65.7978 Y50.6092 
G01 X65.7316 Y50.6475 
G01 X65.6775 Y50.7016 
G01 X64.6275 Y51.7516 
G01 X64.5892 Y51.8178 
G01 X64.5698 Y51.8904 
G01 X64.5604 Y51.8923 
G01 X64.3734 Y51.9697 
G01 X64.2052 Y52.0821 
G01 X64.0621 Y52.2252 
G01 X63.9497 Y52.3934 
G01 X63.8723 Y52.5804 
G01 X63.8328 Y52.7788 
G01 X63.8328 Y52.9812 
G01 X63.8723 Y53.1796 
G01 X63.9497 Y53.3666 
G01 X64.0621 Y53.5348 
G01 X64.2052 Y53.6779 
G01 X64.3734 Y53.7903 
G01 X64.5604 Y53.8677 
G01 X64.7588 Y53.9072 
G01 X64.9612 Y53.9072 
G01 X65.1596 Y53.8677 
G01 X65.3466 Y53.7903 
G01 X65.5148 Y53.6779 
G01 X65.6579 Y53.5348 
G01 X65.7703 Y53.3666 
G01 X65.8477 Y53.1796 
G01 X65.8872 Y52.9812 
G01 X65.8872 Y52.7788 
G01 X65.8477 Y52.5804 
G01 X65.7703 Y52.3934 
G01 X65.6579 Y52.2252 
G01 X65.5148 Y52.0821 
G01 X65.3466 Y51.9697 
G01 X65.2650 Y51.9359 
G01 X66.0304 Y51.1706 
G01 X74.5896 Y51.1706 
G01 X74.8775 Y51.4584 
G01 X74.9316 Y51.5125 
G01 X74.9978 Y51.5508 
G01 X75.0717 Y51.5706 
G01 X79.1483 Y51.5706 
G01 X79.2222 Y51.5508 
G01 X79.2884 Y51.5125 
G01 X80.4884 Y50.3125 
G01 X80.5425 Y50.2584 
G01 X80.5808 Y50.1922 
G01 X80.6006 Y50.1183 
G01 X80.6006 Y46.6004 
G01 X81.6884 Y45.5125 
G01 X81.7425 Y45.4584 
G01 X81.7808 Y45.3922 
G01 X81.8006 Y45.3183 
G01 X81.8006 Y41.2417 
G01 X81.7808 Y41.1678 
G01 X81.7425 Y41.1016 
G01 X80.2006 Y39.5596 
G01 X80.2006 Y38.5100 
G01 X80.3026 Y38.5100 
G01 X80.3347 Y38.4967 
G01 X80.3593 Y38.4721 
G01 X80.3726 Y38.4400 
G01 X80.3726 Y36.3732 
G01 X80.3593 Y36.3411 
G01 X80.3347 Y36.3165 
G01 X80.3026 Y36.3032 
G01 X79.6074 Y36.3032 
G01 X79.5753 Y36.3165 
G01 X79.5507 Y36.3411 
G01 X79.5374 Y36.3732 
G01 X79.5374 Y38.4400 
G01 X79.5507 Y38.4721 
G01 X79.5753 Y38.4967 
G01 X79.6074 Y38.5100 
G01 X79.6194 Y38.5100 
G01 X79.6194 Y39.5596 
G01 X78.5896 Y40.5894 
G01 X75.8717 Y40.5894 
G01 X75.7978 Y40.6092 
G01 X75.7316 Y40.6475 
G01 X75.6775 Y40.7016 
G01 X74.8750 Y41.5040 
G01 X73.2184 Y39.8475 
G01 X73.1522 Y39.8092 
G01 X73.0783 Y39.7894 
G01 X55.6304 Y39.7894 
G01 X54.6006 Y38.7596 
G01 X54.6006 Y38.5100 
G01 X54.7026 Y38.5100 
G01 X54.7347 Y38.4967 
G01 X54.7593 Y38.4721 
G01 X54.7726 Y38.4400 
G01 X54.7726 Y36.3732 
G01 X54.7593 Y36.3411 
G01 X54.7347 Y36.3165 
G01 X54.7026 Y36.3032 
G01 X54.0074 Y36.3032 
G01 X53.9753 Y36.3165 
G01 X53.9507 Y36.3411 
G01 X53.9374 Y36.3732 
G01 X53.9374 Y38.4400 
G01 X53.9507 Y38.4721 
G01 X53.9753 Y38.4967 
G01 X54.0074 Y38.5100 
G01 X54.0194 Y38.5100 
G01 X54.0194 Y38.7596 
G01 X52.1896 Y40.5894 
G01 X50.2717 Y40.5894 
G01 X50.1978 Y40.6092 
G01 X50.1316 Y40.6475 
G01 X50.0775 Y40.7016 
G01 X49.2750 Y41.5040 
G01 X47.6184 Y39.8475 
G01 X47.5522 Y39.8092 
G01 X47.4783 Y39.7894 
G01 X30.0304 Y39.7894 
G01 X29.0006 Y38.7596 
G01 X29.0006 Y38.5100 
G01 X29.1026 Y38.5100 
G01 X29.1347 Y38.4967 
G01 X29.1593 Y38.4721 
G01 X29.1726 Y38.4400 
G01 X29.1726 Y36.3732 
G01 X29.1593 Y36.3411 
G01 X29.1347 Y36.3165 
G01 X29.1026 Y36.3032 
G01 X28.4074 Y36.3032 
G01 X28.3753 Y36.3165 
G01 X28.3507 Y36.3411 
G01 X28.3374 Y36.3732 
G01 X28.3374 Y38.4400 
G01 X28.3507 Y38.4721 
G01 X28.3753 Y38.4967 
G01 X28.4074 Y38.5100 
G01 X28.4194 Y38.5100 
G01 X28.4194 Y38.7596 
G01 X26.5896 Y40.5894 
G01 X24.6717 Y40.5894 
G01 X24.5978 Y40.6092 
G01 X24.5316 Y40.6475 
G01 X24.4775 Y40.7016 
G01 X23.6750 Y41.5040 
G01 X22.0725 Y39.9016 
G01 X22.0184 Y39.8475 
G01 X21.9522 Y39.8092 
G01 X21.8783 Y39.7894 
G01 X14.0304 Y39.7894 
G01 X7.4006  Y33.1596 
G01 X7.4006  Y22.2004 
G01 X8.8975  Y20.7034 
G01 X8.9245  Y20.6568 
G01 X9.0126  Y20.6568 
G01 X9.0447  Y20.6435 
G01 X9.0693  Y20.6189 
G01 X9.0826  Y20.5868 
G01 X9.0826  Y18.5200 
G01 X9.0693  Y18.4879 
G01 X9.0447  Y18.4633 
G01 X9.0126  Y18.4500 
G01 X9.0006  Y18.4500 
G01 X9.0006  Y18.2004 
G01 X10.0304 Y17.1706 
G01 X12.0183 Y17.1706 
G01 X12.0922 Y17.1508 
G01 X12.1584 Y17.1125 
G01 X13.7450 Y15.5260 
G01 X15.2775 Y17.0584 
G01 X15.3316 Y17.1125 
G01 X15.3978 Y17.1508 
G01 X15.4717 Y17.1706 
G01 X20.1896 Y17.1706 
G01 X21.2194 Y18.2004 
G01 X21.2194 Y18.4500 
G01 X21.1174 Y18.4500 
G01 X21.0853 Y18.4633 
G01 X21.0607 Y18.4879 
G01 X21.0474 Y18.5200 
G01 X21.0474 Y20.5868 
G01 X21.0607 Y20.6189 
G01 X21.0853 Y20.6435 
G01 X21.1174 Y20.6568 
G01 X21.8126 Y20.6568 
G01 X21.8447 Y20.6435 
G01 X21.8693 Y20.6189 
G01 X21.8826 Y20.5868 
G01 X21.8826 Y18.5200 
G01 X21.8693 Y18.4879 
G01 X21.8447 Y18.4633 
G01 X21.8126 Y18.4500 
G01 X21.8006 Y18.4500 
G01 X21.8006 Y18.2004 
G01 X22.8304 Y17.1706 
G01 X24.8183 Y17.1706 
G01 X24.8922 Y17.1508 
G01 X24.9584 Y17.1125 
G01 X26.5450 Y15.5260 
G01 X28.0775 Y17.0584 
G01 X28.1316 Y17.1125 
G01 X28.1978 Y17.1508 
G01 X28.2717 Y17.1706 
G01 X32.9896 Y17.1706 
G01 X34.0194 Y18.2004 
G01 X34.0194 Y18.4500 
G01 X33.9174 Y18.4500 
G01 X33.8853 Y18.4633 
G01 X33.8607 Y18.4879 
G01 X33.8474 Y18.5200 
G01 X33.8474 Y20.5868 
G01 X33.8607 Y20.6189 
G01 X33.8853 Y20.6435 
G01 X33.9174 Y20.6568 
G01 X34.6126 Y20.6568 
G01 X34.6447 Y20.6435 
G01 X34.6693 Y20.6189 
G01 X34.6826 Y20.5868 
G01 X34.6826 Y18.5200 
G01 X34.6693 Y18.4879 
G01 X34.6447 Y18.4633 
G01 X34.6126 Y18.4500 
G01 X34.6006 Y18.4500 
G01 X34.6006 Y18.2004 
G01 X35.6304 Y17.1706 
G01 X37.6183 Y17.1706 
G01 X37.6922 Y17.1508 
G01 X37.7584 Y17.1125 
G01 X39.3450 Y15.5260 
G01 X40.8775 Y17.0584 
G01 X40.9316 Y17.1125 
G01 X40.9978 Y17.1508 
G01 X41.0717 Y17.1706 
G01 X45.7896 Y17.1706 
G01 X46.8194 Y18.2004 
G01 X46.8194 Y18.4500 
G01 X46.7174 Y18.4500 
G01 X46.6853 Y18.4633 
G01 X46.6607 Y18.4879 
G01 X46.6474 Y18.5200 
G01 X46.6474 Y20.5868 
G01 X46.6607 Y20.6189 
G01 X46.6853 Y20.6435 
G01 X46.7174 Y20.6568 
G01 X47.4126 Y20.6568 
G01 X47.4447 Y20.6435 
G01 X47.4693 Y20.6189 
G01 X47.4826 Y20.5868 
G01 X47.4826 Y18.5200 
G01 X47.4693 Y18.4879 
G01 X47.4447 Y18.4633 
G01 X47.4126 Y18.4500 
G01 X47.4006 Y18.4500 
G01 X47.4006 Y18.2004 
G01 X48.4304 Y17.1706 
G01 X50.4183 Y17.1706 
G01 X50.4922 Y17.1508 
G01 X50.5584 Y17.1125 
G01 X52.1450 Y15.5260 
G01 X53.6775 Y17.0584 
G01 X53.7316 Y17.1125 
G01 X53.7978 Y17.1508 
G01 X53.8717 Y17.1706 
G01 X58.5896 Y17.1706 
G01 X59.6194 Y18.2004 
G01 X59.6194 Y18.4500 
G01 X59.5174 Y18.4500 
G01 X59.4853 Y18.4633 
G01 X59.4607 Y18.4879 
G01 X59.4474 Y18.5200 
G01 X59.4474 Y20.5868 
G01 X59.4607 Y20.6189 
G01 X59.4853 Y20.6435 
G01 X59.5174 Y20.6568 
G01 X60.2126 Y20.6568 
G01 X60.2447 Y20.6435 
G01 X60.2693 Y20.6189 
G01 X60.2826 Y20.5868 
G01 X60.2826 Y18.5200 
G01 X60.2693 Y18.4879 
G01 X60.2447 Y18.4633 
G01 X60.2126 Y18.4500 
G01 X60.2006 Y18.4500 
G01 X60.2006 Y18.2004 
G01 X61.2304 Y17.1706 
G01 X63.2183 Y17.1706 
G01 X63.2922 Y17.1508 
G01 X63.3584 Y17.1125 
G01 X64.9450 Y15.5260 
G01 X66.4775 Y17.0584 
G01 X66.5316 Y17.1125 
G01 X66.5978 Y17.1508 
G01 X66.6717 Y17.1706 
G01 X71.3896 Y17.1706 
G01 X72.4194 Y18.2004 
G01 X72.4194 Y18.4500 
G01 X72.3174 Y18.4500 
G01 X72.2853 Y18.4633 
G01 X72.2607 Y18.4879 
G01 X72.2474 Y18.5200 
G01 X72.2474 Y20.5868 
G01 X72.2607 Y20.6189 
G01 X72.2853 Y20.6435 
G01 X72.3174 Y20.6568 
G01 X73.0126 Y20.6568 
G01 X73.0447 Y20.6435 
G01 X73.0693 Y20.6189 
G01 X73.0826 Y20.5868 
G01 X73.0826 Y18.5200 
G01 X73.0693 Y18.4879 
G01 X73.0447 Y18.4633 
G01 X73.0126 Y18.4500 
G01 X73.0006 Y18.4500 
G01 X73.0006 Y18.2004 
G01 X74.0304 Y17.1706 
G01 X76.3483 Y17.1706 
G01 X76.4222 Y17.1508 
G01 X76.4884 Y17.1125 
G01 X77.9234 Y15.6775 
G01 X77.9775 Y15.6234 
G01 X78.0158 Y15.5572 
G01 X78.0356 Y15.4833 
G01 X78.0356 Y14.5100 
G01 X78.0926 Y14.5100 
G01 X78.1247 Y14.4967 
G01 X78.1493 Y14.4721 
G01 X78.1626 Y14.4400 
G01 X78.1626 Y12.3732 
G01 X78.1493 Y12.3411 
G01 X78.1247 Y12.3165 
G01 X78.0926 Y12.3032 
G01 X77.3974 Y12.3032 
G01 X77.3653 Y12.3165 
G01 X77.3407 Y12.3411 
G01 X77.3274 Y12.3732 
G01 X77.3274 Y14.4400 
G01 X77.3407 Y14.4721 
G01 X77.3653 Y14.4967 
G01 X77.3974 Y14.5100 
G01 X77.4544 Y14.5100 
G01 X77.4544 Y15.3246 
G01 X76.1896 Y16.5894 
G01 X73.8717 Y16.5894 
G01 X73.7978 Y16.6092 
G01 X73.7316 Y16.6475 
G01 X73.6775 Y16.7016 
G01 X72.7100 Y17.6690 
G01 X71.6884 Y16.6475 
G01 X71.6222 Y16.6092 
G01 X71.5483 Y16.5894 
G01 X66.8304 Y16.5894 
G01 X65.2356 Y14.9946 
G01 X65.2356 Y14.5100 
G01 X65.2926 Y14.5100 
G01 X65.3247 Y14.4967 
G01 X65.3493 Y14.4721 
G01 X65.3626 Y14.4400 
G01 X65.3626 Y12.3732 
G01 X65.3493 Y12.3411 
G01 X65.3247 Y12.3165 
G01 X65.2926 Y12.3032 
G01 X64.5974 Y12.3032 
G01 X64.5653 Y12.3165 
G01 X64.5407 Y12.3411 
G01 X64.5274 Y12.3732 
G01 X64.5274 Y14.4400 
G01 X64.5407 Y14.4721 
G01 X64.5653 Y14.4967 
G01 X64.5974 Y14.5100 
G01 X64.6544 Y14.5100 
G01 X64.6544 Y14.9946 
G01 X63.0596 Y16.5894 
G01 X61.0717 Y16.5894 
G01 X60.9978 Y16.6092 
G01 X60.9316 Y16.6475 
G01 X60.8775 Y16.7016 
G01 X59.9100 Y17.6690 
G01 X58.8884 Y16.6475 
G01 X58.8222 Y16.6092 
G01 X58.7483 Y16.5894 
G01 X54.0304 Y16.5894 
G01 X52.4356 Y14.9946 
G01 X52.4356 Y14.5100 
G01 X52.4926 Y14.5100 
G01 X52.5247 Y14.4967 
G01 X52.5493 Y14.4721 
G01 X52.5626 Y14.4400 
G01 X52.5626 Y12.3732 
G01 X52.5493 Y12.3411 
G01 X52.5247 Y12.3165 
G01 X52.4926 Y12.3032 
G01 X51.7974 Y12.3032 
G01 X51.7653 Y12.3165 
G01 X51.7407 Y12.3411 
G01 X51.7274 Y12.3732 
G01 X51.7274 Y14.4400 
G01 X51.7407 Y14.4721 
G01 X51.7653 Y14.4967 
G01 X51.7974 Y14.5100 
G01 X51.8544 Y14.5100 
G01 X51.8544 Y14.9946 
G01 X50.2596 Y16.5894 
G01 X48.2717 Y16.5894 
G01 X48.1978 Y16.6092 
G01 X48.1316 Y16.6475 
G01 X48.0775 Y16.7016 
G01 X47.1100 Y17.6690 
G01 X46.0884 Y16.6475 
G01 X46.0222 Y16.6092 
G01 X45.9483 Y16.5894 
G01 X41.2304 Y16.5894 
G01 X39.6356 Y14.9946 
G01 X39.6356 Y14.5100 
G01 X39.6926 Y14.5100 
G01 X39.7247 Y14.4967 
G01 X39.7493 Y14.4721 
G01 X39.7626 Y14.4400 
G01 X39.7626 Y12.3732 
G01 X39.7493 Y12.3411 
G01 X39.7247 Y12.3165 
G01 X39.6926 Y12.3032 
G01 X38.9974 Y12.3032 
G01 X38.9653 Y12.3165 
G01 X38.9407 Y12.3411 
G01 X38.9274 Y12.3732 
G01 X38.9274 Y14.4400 
G01 X38.9407 Y14.4721 
G01 X38.9653 Y14.4967 
G01 X38.9974 Y14.5100 
G01 X39.0544 Y14.5100 
G01 X39.0544 Y14.9946 
G01 X37.4596 Y16.5894 
G01 X35.4717 Y16.5894 
G01 X35.3978 Y16.6092 
G01 X35.3316 Y16.6475 
G01 X35.2775 Y16.7016 
G01 X34.3100 Y17.6690 
G01 X33.2884 Y16.6475 
G01 X33.2222 Y16.6092 
G01 X33.1483 Y16.5894 
G01 X28.4304 Y16.5894 
G01 X26.8356 Y14.9946 
G01 X26.8356 Y14.5100 
G01 X26.8926 Y14.5100 
G01 X26.9247 Y14.4967 
G01 X26.9493 Y14.4721 
G01 X26.9626 Y14.4400 
G01 X26.9626 Y12.3732 
G01 X26.9493 Y12.3411 
G01 X26.9247 Y12.3165 
G01 X26.8926 Y12.3032 
G01 X26.1974 Y12.3032 
G01 X26.1653 Y12.3165 
G01 X26.1407 Y12.3411 
G01 X26.1274 Y12.3732 
G01 X26.1274 Y14.4400 
G01 X26.1407 Y14.4721 
G01 X26.1653 Y14.4967 
G01 X26.1974 Y14.5100 
G01 X26.2544 Y14.5100 
G01 X26.2544 Y14.9946 
G01 X24.6596 Y16.5894 
G01 X22.6717 Y16.5894 
G01 X22.5978 Y16.6092 
G01 X22.5316 Y16.6475 
G01 X22.4775 Y16.7016 
G01 X21.5100 Y17.6690 
G01 X20.4884 Y16.6475 
G01 X20.4222 Y16.6092 
G01 X20.3483 Y16.5894 
G01 X15.6304 Y16.5894 
G01 X14.0356 Y14.9946 
G01 X14.0356 Y14.5100 
G01 X14.0926 Y14.5100 
G01 X14.1247 Y14.4967 
G01 X14.1493 Y14.4721 
G01 X14.1626 Y14.4400 
G01 X14.1626 Y12.3732 
G01 X14.1493 Y12.3411 
G01 X14.1247 Y12.3165 
G01 X14.0926 Y12.3032 
G01 X13.3974 Y12.3032 
G01 X13.3653 Y12.3165 
G01 X13.3407 Y12.3411 
G00 Z2.5400  
G00 X14.6107 Y12.3411 
G01 Z-0.0200 F254   
G01 X14.5974 Y12.3732 F500   
G01 X14.5974 Y14.4400 
G01 X14.6107 Y14.4721 
G01 X14.6353 Y14.4967 
G01 X14.6674 Y14.5100 
G01 X14.8194 Y14.5100 
G01 X14.8194 Y15.3183 
G01 X14.8392 Y15.3922 
G01 X14.8775 Y15.4584 
G01 X14.9316 Y15.5125 
G01 X15.7316 Y16.3125 
G01 X15.7978 Y16.3508 
G01 X15.8717 Y16.3706 
G01 X20.7483 Y16.3706 
G01 X20.8222 Y16.3508 
G01 X20.8884 Y16.3125 
G01 X20.9425 Y16.2584 
G01 X21.6975 Y15.5034 
G01 X21.7358 Y15.4372 
G01 X21.7556 Y15.3633 
G01 X21.7556 Y14.5100 
G01 X21.8126 Y14.5100 
G01 X21.8447 Y14.4967 
G01 X21.8693 Y14.4721 
G01 X21.8826 Y14.4400 
G01 X21.8826 Y12.3732 
G01 X21.8693 Y12.3411 
G01 X21.8447 Y12.3165 
G01 X21.8126 Y12.3032 
G01 X21.1174 Y12.3032 
G01 X21.0853 Y12.3165 
G01 X21.0607 Y12.3411 
G01 X21.0474 Y12.3732 
G01 X21.0474 Y14.4400 
G01 X21.0607 Y14.4721 
G01 X21.0853 Y14.4967 
G01 X21.1174 Y14.5100 
G01 X21.1744 Y14.5100 
G01 X21.1744 Y15.2046 
G01 X20.5896 Y15.7894 
G01 X16.0304 Y15.7894 
G01 X15.4006 Y15.1596 
G01 X15.4006 Y14.4908 
G01 X15.4193 Y14.4721 
G01 X15.4326 Y14.4400 
G01 X15.4326 Y12.3732 
G01 X15.4193 Y12.3411 
G01 X15.3947 Y12.3165 
G01 X15.3626 Y12.3032 
G01 X14.6674 Y12.3032 
G01 X14.6353 Y12.3165 
G01 X14.6107 Y12.3411 
G00 Z2.5400  
G00 X15.8807 Y12.3411 
G01 Z-0.0200 F254   
G01 X15.8674 Y12.3732 F500   
G01 X15.8674 Y14.4400 
G01 X15.8807 Y14.4721 
G01 X15.9053 Y14.4967 
G01 X15.9374 Y14.5100 
G01 X15.9944 Y14.5100 
G01 X15.9944 Y14.8933 
G01 X16.0142 Y14.9672 
G01 X16.0525 Y15.0334 
G01 X16.4775 Y15.4584 
G01 X16.5316 Y15.5125 
G01 X16.5978 Y15.5508 
G01 X16.6717 Y15.5706 
G01 X19.1483 Y15.5706 
G01 X19.2222 Y15.5508 
G01 X19.2884 Y15.5125 
G01 X19.6884 Y15.1125 
G01 X19.7425 Y15.0584 
G01 X19.7808 Y14.9922 
G01 X19.8006 Y14.9183 
G01 X19.8006 Y14.3174 
G01 X20.0774 Y14.3174 
G01 X20.1095 Y14.3041 
G01 X20.1341 Y14.2795 
G01 X20.1474 Y14.2474 
G01 X20.1474 Y13.1126 
G01 X20.1341 Y13.0805 
G01 X20.1095 Y13.0559 
G01 X20.0774 Y13.0426 
G01 X18.9426 Y13.0426 
G01 X18.9105 Y13.0559 
G01 X18.8859 Y13.0805 
G01 X18.8726 Y13.1126 
G01 X18.8726 Y14.2474 
G01 X18.8859 Y14.2795 
G01 X18.9105 Y14.3041 
G01 X18.9426 Y14.3174 
G01 X19.2194 Y14.3174 
G01 X19.2194 Y14.7596 
G01 X18.9896 Y14.9894 
G01 X16.8304 Y14.9894 
G01 X16.5756 Y14.7346 
G01 X16.5756 Y14.5100 
G01 X16.6326 Y14.5100 
G01 X16.6647 Y14.4967 
G01 X16.6893 Y14.4721 
G01 X16.7026 Y14.4400 
G01 X16.7026 Y12.3732 
G01 X16.6893 Y12.3411 
G01 X16.6647 Y12.3165 
G01 X16.6326 Y12.3032 
G01 X15.9374 Y12.3032 
G01 X15.9053 Y12.3165 
G01 X15.8807 Y12.3411 
G00 Z2.5400  
G00 X15.8807 Y18.4879 
G01 Z-0.0200 F254   
G01 X15.8674 Y18.5200 F500   
G01 X15.8674 Y20.5868 
G01 X15.8807 Y20.6189 
G01 X15.9053 Y20.6435 
G01 X15.9374 Y20.6568 
G01 X15.9944 Y20.6568 
G01 X15.9944 Y22.2926 
G01 X15.6926 Y22.2926 
G01 X15.6605 Y22.3059 
G01 X15.6359 Y22.3305 
G01 X15.6226 Y22.3626 
G01 X15.6226 Y23.1974 
G01 X15.6359 Y23.2295 
G01 X15.6605 Y23.2541 
G01 X15.6926 Y23.2674 
G01 X16.9274 Y23.2674 
G01 X16.9595 Y23.2541 
G01 X16.9841 Y23.2295 
G01 X16.9974 Y23.1974 
G01 X16.9974 Y22.3626 
G01 X16.9841 Y22.3305 
G01 X16.9595 Y22.3059 
G01 X16.9274 Y22.2926 
G01 X16.5756 Y22.2926 
G01 X16.5756 Y20.6568 
G01 X16.6326 Y20.6568 
G01 X16.6647 Y20.6435 
G01 X16.6893 Y20.6189 
G01 X16.7026 Y20.5868 
G01 X16.7026 Y18.5200 
G01 X16.6893 Y18.4879 
G01 X16.6647 Y18.4633 
G01 X16.6326 Y18.4500 
G01 X15.9374 Y18.4500 
G01 X15.9053 Y18.4633 
G01 X15.8807 Y18.4879 
G00 Z2.5400  
G00 X15.4193 Y18.4879 
G01 Z-0.0200 F254   
G01 X15.3947 Y18.4633 F500   
G01 X15.3626 Y18.4500 
G01 X14.6674 Y18.4500 
G01 X14.6353 Y18.4633 
G01 X14.6107 Y18.4879 
G01 X14.5974 Y18.5200 
G01 X14.5974 Y20.5868 
G01 X14.6107 Y20.6189 
G01 X14.6353 Y20.6435 
G01 X14.6674 Y20.6568 
G01 X14.7244 Y20.6568 
G01 X14.7244 Y21.6546 
G01 X14.5316 Y21.8475 
G01 X14.4775 Y21.9016 
G01 X14.4392 Y21.9678 
G01 X14.4194 Y22.0417 
G01 X14.4194 Y22.2926 
G01 X14.0926 Y22.2926 
G01 X14.0605 Y22.3059 
G01 X14.0359 Y22.3305 
G01 X14.0226 Y22.3626 
G01 X14.0226 Y23.1974 
G01 X14.0359 Y23.2295 
G01 X14.0605 Y23.2541 
G01 X14.0926 Y23.2674 
G01 X15.3274 Y23.2674 
G01 X15.3595 Y23.2541 
G01 X15.3841 Y23.2295 
G01 X15.3974 Y23.1974 
G01 X15.3974 Y22.3626 
G01 X15.3841 Y22.3305 
G01 X15.3595 Y22.3059 
G01 X15.3274 Y22.2926 
G01 X15.0006 Y22.2926 
G01 X15.0006 Y22.2004 
G01 X15.2475 Y21.9534 
G01 X15.2858 Y21.8872 
G01 X15.3056 Y21.8133 
G01 X15.3056 Y20.6568 
G01 X15.3626 Y20.6568 
G01 X15.3947 Y20.6435 
G01 X15.4193 Y20.6189 
G01 X15.4326 Y20.5868 
G01 X15.4326 Y18.5200 
G01 X15.4193 Y18.4879 
G00 Z2.5400  
G00 X14.1493 Y18.4879 
G01 Z-0.0200 F254   
G01 X14.1247 Y18.4633 F500   
G01 X14.0926 Y18.4500 
G01 X13.3974 Y18.4500 
G01 X13.3653 Y18.4633 
G01 X13.3407 Y18.4879 
G01 X13.3274 Y18.5200 
G01 X13.3274 Y20.5868 
G01 X13.3407 Y20.6189 
G01 X13.3653 Y20.6435 
G01 X13.3974 Y20.6568 
G01 X13.4544 Y20.6568 
G01 X13.4544 Y21.3246 
G01 X12.9316 Y21.8475 
G01 X12.8775 Y21.9016 
G01 X12.8392 Y21.9678 
G01 X12.8194 Y22.0417 
G01 X12.8194 Y22.2926 
G01 X12.4926 Y22.2926 
G01 X12.4605 Y22.3059 
G01 X12.4359 Y22.3305 
G01 X12.4226 Y22.3626 
G01 X12.4226 Y23.1974 
G01 X12.4359 Y23.2295 
G01 X12.4605 Y23.2541 
G01 X12.4926 Y23.2674 
G01 X13.7274 Y23.2674 
G01 X13.7595 Y23.2541 
G01 X13.7841 Y23.2295 
G01 X13.7974 Y23.1974 
G01 X13.7974 Y22.3626 
G01 X13.7841 Y22.3305 
G01 X13.7595 Y22.3059 
G01 X13.7274 Y22.2926 
G01 X13.4006 Y22.2926 
G01 X13.4006 Y22.2004 
G01 X13.9775 Y21.6234 
G01 X14.0158 Y21.5572 
G01 X14.0356 Y21.4833 
G01 X14.0356 Y20.6568 
G01 X14.0926 Y20.6568 
G01 X14.1247 Y20.6435 
G01 X14.1493 Y20.6189 
G01 X14.1626 Y20.5868 
G01 X14.1626 Y18.5200 
G01 X14.1493 Y18.4879 
G00 Z2.5400  
G00 X12.8793 Y18.4879 
G01 Z-0.0200 F254   
G01 X12.8547 Y18.4633 F500   
G01 X12.8226 Y18.4500 
G01 X12.1274 Y18.4500 
G01 X12.0953 Y18.4633 
G01 X12.0707 Y18.4879 
G01 X12.0574 Y18.5200 
G01 X12.0574 Y20.5868 
G01 X12.0707 Y20.6189 
G01 X12.0953 Y20.6435 
G01 X12.1274 Y20.6568 
G01 X12.1844 Y20.6568 
G01 X12.1844 Y20.9946 
G01 X11.3316 Y21.8475 
G01 X11.2775 Y21.9016 
G01 X11.2392 Y21.9678 
G01 X11.2194 Y22.0417 
G01 X11.2194 Y22.2926 
G01 X10.8926 Y22.2926 
G01 X10.8605 Y22.3059 
G01 X10.8359 Y22.3305 
G01 X10.8226 Y22.3626 
G01 X10.8226 Y23.1974 
G01 X10.8359 Y23.2295 
G01 X10.8605 Y23.2541 
G01 X10.8926 Y23.2674 
G01 X12.1274 Y23.2674 
G01 X12.1595 Y23.2541 
G01 X12.1841 Y23.2295 
G01 X12.1974 Y23.1974 
G01 X12.1974 Y22.3626 
G01 X12.1841 Y22.3305 
G01 X12.1595 Y22.3059 
G01 X12.1274 Y22.2926 
G01 X11.8006 Y22.2926 
G01 X11.8006 Y22.2004 
G01 X12.7075 Y21.2934 
G01 X12.7458 Y21.2272 
G01 X12.7656 Y21.1533 
G01 X12.7656 Y20.6568 
G01 X12.8226 Y20.6568 
G01 X12.8547 Y20.6435 
G01 X12.8793 Y20.6189 
G01 X12.8926 Y20.5868 
G01 X12.8926 Y18.5200 
G01 X12.8793 Y18.4879 
G00 Z2.5400  
G00 X11.6093 Y18.4879 
G01 Z-0.0200 F254   
G01 X11.5847 Y18.4633 F500   
G01 X11.5526 Y18.4500 
G01 X10.8574 Y18.4500 
G01 X10.8253 Y18.4633 
G01 X10.8007 Y18.4879 
G01 X10.7874 Y18.5200 
G01 X10.7874 Y20.5868 
G01 X10.8007 Y20.6189 
G01 X10.8253 Y20.6435 
G01 X10.8574 Y20.6568 
G01 X10.9144 Y20.6568 
G01 X10.9144 Y20.6646 
G01 X9.7316  Y21.8475 
G01 X9.6775  Y21.9016 
G01 X9.6392  Y21.9678 
G01 X9.6194  Y22.0417 
G01 X9.6194  Y22.2926 
G01 X9.2926  Y22.2926 
G01 X9.2605  Y22.3059 
G01 X9.2359  Y22.3305 
G01 X9.2226  Y22.3626 
G01 X9.2226  Y23.1974 
G01 X9.2359  Y23.2295 
G01 X9.2605  Y23.2541 
G01 X9.2926  Y23.2674 
G01 X10.5274 Y23.2674 
G01 X10.5595 Y23.2541 
G01 X10.5841 Y23.2295 
G01 X10.5974 Y23.1974 
G01 X10.5974 Y22.3626 
G01 X10.5841 Y22.3305 
G01 X10.5595 Y22.3059 
G01 X10.5274 Y22.2926 
G01 X10.2006 Y22.2926 
G01 X10.2006 Y22.2004 
G01 X11.4375 Y20.9634 
G01 X11.4758 Y20.8972 
G01 X11.4956 Y20.8233 
G01 X11.4956 Y20.6568 
G01 X11.5526 Y20.6568 
G01 X11.5847 Y20.6435 
G01 X11.6093 Y20.6189 
G01 X11.6226 Y20.5868 
G01 X11.6226 Y18.5200 
G01 X11.6093 Y18.4879 
G00 Z2.5400  
G00 X10.3393 Y18.4879 
G01 Z-0.0200 F254   
G01 X10.3147 Y18.4633 F500   
G01 X10.2826 Y18.4500 
G01 X9.5874  Y18.4500 
G01 X9.5553  Y18.4633 
G01 X9.5307  Y18.4879 
G01 X9.5174  Y18.5200 
G01 X9.5174  Y20.4616 
G01 X8.1316  Y21.8475 
G01 X8.0775  Y21.9016 
G01 X8.0392  Y21.9678 
G01 X8.0194  Y22.0417 
G01 X8.0194  Y22.2926 
G01 X7.6926  Y22.2926 
G01 X7.6605  Y22.3059 
G01 X7.6359  Y22.3305 
G01 X7.6226  Y22.3626 
G01 X7.6226  Y23.1974 
G01 X7.6359  Y23.2295 
G01 X7.6605  Y23.2541 
G01 X7.6926  Y23.2674 
G01 X8.9274  Y23.2674 
G01 X8.9595  Y23.2541 
G01 X8.9841  Y23.2295 
G01 X8.9974  Y23.1974 
G01 X8.9974  Y22.3626 
G01 X8.9841  Y22.3305 
G01 X8.9595  Y22.3059 
G01 X8.9274  Y22.2926 
G01 X8.6006  Y22.2926 
G01 X8.6006  Y22.2004 
G01 X10.1442 Y20.6568 
G01 X10.2826 Y20.6568 
G01 X10.3147 Y20.6435 
G01 X10.3393 Y20.6189 
G01 X10.3526 Y20.5868 
G01 X10.3526 Y18.5200 
G01 X10.3393 Y18.4879 
G00 Z2.5400  
G00 X10.5274 Y24.0926 
G01 Z-0.0200 F254   
G01 X9.2926  Y24.0926 F500   
G01 X9.2605  Y24.1059 
G01 X9.2359  Y24.1305 
G01 X9.2226  Y24.1626 
G01 X9.2226  Y24.9974 
G01 X9.2359  Y25.0295 
G01 X9.2605  Y25.0541 
G01 X9.2926  Y25.0674 
G01 X9.6194  Y25.0674 
G01 X9.6194  Y25.7256 
G01 X9.3974  Y25.7256 
G01 X9.3653  Y25.7389 
G01 X9.3407  Y25.7635 
G01 X9.3274  Y25.7956 
G01 X9.3274  Y27.6084 
G01 X9.3407  Y27.6405 
G01 X9.3653  Y27.6651 
G01 X9.3974  Y27.6784 
G01 X10.3466 Y27.6784 
G01 X10.3787 Y27.6651 
G01 X10.4033 Y27.6405 
G01 X10.4166 Y27.6084 
G01 X10.4166 Y25.7956 
G01 X10.4033 Y25.7635 
G01 X10.3787 Y25.7389 
G01 X10.3466 Y25.7256 
G01 X10.2006 Y25.7256 
G01 X10.2006 Y25.0674 
G01 X10.5274 Y25.0674 
G01 X10.5595 Y25.0541 
G01 X10.5841 Y25.0295 
G01 X10.5974 Y24.9974 
G01 X10.5974 Y24.1626 
G01 X10.5841 Y24.1305 
G01 X10.5595 Y24.1059 
G01 X10.5274 Y24.0926 
G00 Z2.5400  
G00 X10.8359 Y24.1305 
G01 Z-0.0200 F254   
G01 X10.8226 Y24.1626 F500   
G01 X10.8226 Y24.9974 
G01 X10.8359 Y25.0295 
G01 X10.8605 Y25.0541 
G01 X10.8926 Y25.0674 
G01 X11.2194 Y25.0674 
G01 X11.2194 Y25.7256 
G01 X11.0734 Y25.7256 
G01 X11.0413 Y25.7389 
G01 X11.0167 Y25.7635 
G01 X11.0034 Y25.7956 
G01 X11.0034 Y27.6084 
G01 X11.0167 Y27.6405 
G01 X11.0413 Y27.6651 
G01 X11.0734 Y27.6784 
G01 X12.0226 Y27.6784 
G01 X12.0547 Y27.6651 
G01 X12.0793 Y27.6405 
G01 X12.0926 Y27.6084 
G01 X12.0926 Y25.7956 
G01 X12.0793 Y25.7635 
G01 X12.0547 Y25.7389 
G01 X12.0226 Y25.7256 
G01 X11.8006 Y25.7256 
G01 X11.8006 Y25.0674 
G01 X12.1274 Y25.0674 
G01 X12.1595 Y25.0541 
G01 X12.1841 Y25.0295 
G01 X12.1974 Y24.9974 
G01 X12.1974 Y24.1626 
G01 X12.1841 Y24.1305 
G01 X12.1595 Y24.1059 
G01 X12.1274 Y24.0926 
G01 X10.8926 Y24.0926 
G01 X10.8605 Y24.1059 
G01 X10.8359 Y24.1305 
G00 Z2.5400  
G00 X12.4359 Y24.1305 
G01 Z-0.0200 F254   
G01 X12.4226 Y24.1626 F500   
G01 X12.4226 Y24.9974 
G01 X12.4359 Y25.0295 
G01 X12.4605 Y25.0541 
G01 X12.4926 Y25.0674 
G01 X12.8194 Y25.0674 
G01 X12.8194 Y25.7256 
G01 X12.5974 Y25.7256 
G01 X12.5653 Y25.7389 
G01 X12.5407 Y25.7635 
G01 X12.5274 Y25.7956 
G01 X12.5274 Y27.6084 
G01 X12.5407 Y27.6405 
G01 X12.5653 Y27.6651 
G01 X12.5974 Y27.6784 
G01 X13.5466 Y27.6784 
G01 X13.5787 Y27.6651 
G01 X13.6033 Y27.6405 
G01 X13.6166 Y27.6084 
G01 X13.6166 Y25.7956 
G01 X13.6033 Y25.7635 
G01 X13.5787 Y25.7389 
G01 X13.5466 Y25.7256 
G01 X13.4006 Y25.7256 
G01 X13.4006 Y25.0674 
G01 X13.7274 Y25.0674 
G01 X13.7595 Y25.0541 
G01 X13.7841 Y25.0295 
G01 X13.7974 Y24.9974 
G01 X13.7974 Y24.1626 
G01 X13.7841 Y24.1305 
G01 X13.7595 Y24.1059 
G01 X13.7274 Y24.0926 
G01 X12.4926 Y24.0926 
G01 X12.4605 Y24.1059 
G01 X12.4359 Y24.1305 
G00 Z2.5400  
G00 X14.0359 Y24.1305 
G01 Z-0.0200 F254   
G01 X14.0226 Y24.1626 F500   
G01 X14.0226 Y24.9974 
G01 X14.0359 Y25.0295 
G01 X14.0605 Y25.0541 
G01 X14.0926 Y25.0674 
G01 X14.4194 Y25.0674 
G01 X14.4194 Y25.7256 
G01 X14.2734 Y25.7256 
G01 X14.2413 Y25.7389 
G01 X14.2167 Y25.7635 
G01 X14.2034 Y25.7956 
G01 X14.2034 Y27.6084 
G01 X14.2167 Y27.6405 
G01 X14.2413 Y27.6651 
G01 X14.2734 Y27.6784 
G01 X15.2226 Y27.6784 
G01 X15.2547 Y27.6651 
G01 X15.2793 Y27.6405 
G01 X15.2926 Y27.6084 
G01 X15.2926 Y25.7956 
G01 X15.2793 Y25.7635 
G01 X15.2547 Y25.7389 
G01 X15.2226 Y25.7256 
G01 X15.0006 Y25.7256 
G01 X15.0006 Y25.0674 
G01 X15.3274 Y25.0674 
G01 X15.3595 Y25.0541 
G01 X15.3841 Y25.0295 
G01 X15.3974 Y24.9974 
G01 X15.3974 Y24.1626 
G01 X15.3841 Y24.1305 
G01 X15.3595 Y24.1059 
G01 X15.3274 Y24.0926 
G01 X14.0926 Y24.0926 
G01 X14.0605 Y24.1059 
G01 X14.0359 Y24.1305 
G00 Z2.5400  
G00 X15.6359 Y24.1305 
G01 Z-0.0200 F254   
G01 X15.6226 Y24.1626 F500   
G01 X15.6226 Y24.9974 
G01 X15.6359 Y25.0295 
G01 X15.6605 Y25.0541 
G01 X15.6926 Y25.0674 
G01 X16.0194 Y25.0674 
G01 X16.0194 Y25.7256 
G01 X15.7974 Y25.7256 
G01 X15.7653 Y25.7389 
G01 X15.7407 Y25.7635 
G01 X15.7274 Y25.7956 
G01 X15.7274 Y27.6084 
G01 X15.7407 Y27.6405 
G01 X15.7653 Y27.6651 
G01 X15.7974 Y27.6784 
G01 X16.7466 Y27.6784 
G01 X16.7787 Y27.6651 
G01 X16.8033 Y27.6405 
G01 X16.8166 Y27.6084 
G01 X16.8166 Y25.7956 
G01 X16.8033 Y25.7635 
G01 X16.7787 Y25.7389 
G01 X16.7466 Y25.7256 
G01 X16.6006 Y25.7256 
G01 X16.6006 Y25.0674 
G01 X16.9274 Y25.0674 
G01 X16.9595 Y25.0541 
G01 X16.9841 Y25.0295 
G01 X16.9974 Y24.9974 
G01 X16.9974 Y24.1626 
G01 X16.9841 Y24.1305 
G01 X16.9595 Y24.1059 
G01 X16.9274 Y24.0926 
G01 X15.6926 Y24.0926 
G01 X15.6605 Y24.1059 
G01 X15.6359 Y24.1305 
G00 Z2.5400  
G00 X17.2359 Y24.1305 
G01 Z-0.0200 F254   
G01 X17.2226 Y24.1626 F500   
G01 X17.2226 Y24.9974 
G01 X17.2359 Y25.0295 
G01 X17.2605 Y25.0541 
G01 X17.2926 Y25.0674 
G01 X17.6194 Y25.0674 
G01 X17.6194 Y25.7256 
G01 X17.4734 Y25.7256 
G01 X17.4413 Y25.7389 
G01 X17.4167 Y25.7635 
G01 X17.4034 Y25.7956 
G01 X17.4034 Y27.6084 
G01 X17.4167 Y27.6405 
G01 X17.4413 Y27.6651 
G01 X17.4734 Y27.6784 
G01 X18.4226 Y27.6784 
G01 X18.4547 Y27.6651 
G01 X18.4793 Y27.6405 
G01 X18.4926 Y27.6084 
G01 X18.4926 Y25.7956 
G01 X18.4793 Y25.7635 
G01 X18.4547 Y25.7389 
G01 X18.4226 Y25.7256 
G01 X18.2006 Y25.7256 
G01 X18.2006 Y25.0674 
G01 X18.5274 Y25.0674 
G01 X18.5595 Y25.0541 
G01 X18.5841 Y25.0295 
G01 X18.5974 Y24.9974 
G01 X18.5974 Y24.1626 
G01 X18.5841 Y24.1305 
G01 X18.5595 Y24.1059 
G01 X18.5274 Y24.0926 
G01 X17.2926 Y24.0926 
G01 X17.2605 Y24.1059 
G01 X17.2359 Y24.1305 
G00 Z2.5400  
G00 X17.2605 Y23.2541 
G01 Z-0.0200 F254   
G01 X17.2926 Y23.2674 F500   
G01 X18.5274 Y23.2674 
G01 X18.5595 Y23.2541 
G01 X18.5841 Y23.2295 
G01 X18.5974 Y23.1974 
G01 X18.5974 Y22.3626 
G01 X18.5841 Y22.3305 
G01 X18.5595 Y22.3059 
G01 X18.5274 Y22.2926 
G01 X18.2006 Y22.2926 
G01 X18.2006 Y22.0417 
G01 X18.1808 Y21.9678 
G01 X18.1425 Y21.9016 
G01 X18.0884 Y21.8475 
G01 X17.8456 Y21.6046 
G01 X17.8456 Y20.6568 
G01 X17.9026 Y20.6568 
G01 X17.9347 Y20.6435 
G01 X17.9593 Y20.6189 
G01 X17.9726 Y20.5868 
G01 X17.9726 Y18.5200 
G01 X17.9593 Y18.4879 
G01 X17.9347 Y18.4633 
G01 X17.9026 Y18.4500 
G01 X17.2074 Y18.4500 
G01 X17.1753 Y18.4633 
G01 X17.1507 Y18.4879 
G01 X17.1374 Y18.5200 
G01 X17.1374 Y20.5868 
G01 X17.1507 Y20.6189 
G01 X17.1753 Y20.6435 
G01 X17.2074 Y20.6568 
G01 X17.2644 Y20.6568 
G01 X17.2644 Y21.7633 
G01 X17.2842 Y21.8372 
G01 X17.3225 Y21.9034 
G01 X17.6194 Y22.2004 
G01 X17.6194 Y22.2926 
G01 X17.2926 Y22.2926 
G01 X17.2605 Y22.3059 
G01 X17.2359 Y22.3305 
G01 X17.2226 Y22.3626 
G01 X17.2226 Y23.1974 
G01 X17.2359 Y23.2295 
G01 X17.2605 Y23.2541 
G00 Z2.5400  
G00 X18.8605 Y23.2541 
G01 Z-0.0200 F254   
G01 X18.8926 Y23.2674 F500   
G01 X20.1274 Y23.2674 
G01 X20.1595 Y23.2541 
G01 X20.1841 Y23.2295 
G01 X20.1974 Y23.1974 
G01 X20.1974 Y22.3626 
G01 X20.1841 Y22.3305 
G01 X20.1595 Y22.3059 
G01 X20.1274 Y22.2926 
G01 X19.8006 Y22.2926 
G01 X19.8006 Y19.9174 
G01 X20.0774 Y19.9174 
G01 X20.1095 Y19.9041 
G01 X20.1341 Y19.8795 
G01 X20.1474 Y19.8474 
G01 X20.1474 Y18.7126 
G01 X20.1341 Y18.6805 
G01 X20.1095 Y18.6559 
G01 X20.0774 Y18.6426 
G01 X18.9426 Y18.6426 
G01 X18.9105 Y18.6559 
G01 X18.8859 Y18.6805 
G01 X18.8726 Y18.7126 
G01 X18.8726 Y19.8474 
G01 X18.8859 Y19.8795 
G01 X18.9105 Y19.9041 
G01 X18.9426 Y19.9174 
G01 X19.2194 Y19.9174 
G01 X19.2194 Y22.2926 
G01 X18.8926 Y22.2926 
G01 X18.8605 Y22.3059 
G01 X18.8359 Y22.3305 
G01 X18.8226 Y22.3626 
G01 X18.8226 Y23.1974 
G01 X18.8359 Y23.2295 
G01 X18.8605 Y23.2541 
G00 Z2.5400  
G00 X18.8605 Y24.1059 
G01 Z-0.0200 F254   
G01 X18.8359 Y24.1305 F500   
G01 X18.8226 Y24.1626 
G01 X18.8226 Y24.9974 
G01 X18.8359 Y25.0295 
G01 X18.8605 Y25.0541 
G01 X18.8926 Y25.0674 
G01 X19.2194 Y25.0674 
G01 X19.2194 Y25.7256 
G01 X18.9974 Y25.7256 
G01 X18.9653 Y25.7389 
G01 X18.9407 Y25.7635 
G01 X18.9274 Y25.7956 
G01 X18.9274 Y27.6084 
G01 X18.9407 Y27.6405 
G01 X18.9653 Y27.6651 
G01 X18.9974 Y27.6784 
G01 X19.9466 Y27.6784 
G01 X19.9787 Y27.6651 
G01 X20.0033 Y27.6405 
G01 X20.0166 Y27.6084 
G01 X20.0166 Y25.7956 
G01 X20.0033 Y25.7635 
G01 X19.9787 Y25.7389 
G01 X19.9466 Y25.7256 
G01 X19.8006 Y25.7256 
G01 X19.8006 Y25.0674 
G01 X20.1274 Y25.0674 
G01 X20.1595 Y25.0541 
G01 X20.1841 Y25.0295 
G01 X20.1974 Y24.9974 
G01 X20.1974 Y24.1626 
G01 X20.1841 Y24.1305 
G01 X20.1595 Y24.1059 
G01 X20.1274 Y24.0926 
G01 X18.8926 Y24.0926 
G01 X18.8605 Y24.1059 
G00 Z2.5400  
G00 X20.4359 Y24.1305 
G01 Z-0.0200 F254   
G01 X20.4226 Y24.1626 F500   
G01 X20.4226 Y24.9974 
G01 X20.4359 Y25.0295 
G01 X20.4605 Y25.0541 
G01 X20.4926 Y25.0674 
G01 X20.8194 Y25.0674 
G01 X20.8194 Y25.7256 
G01 X20.6734 Y25.7256 
G01 X20.6413 Y25.7389 
G01 X20.6167 Y25.7635 
G01 X20.6034 Y25.7956 
G01 X20.6034 Y27.6084 
G01 X20.6167 Y27.6405 
G01 X20.6413 Y27.6651 
G01 X20.6734 Y27.6784 
G01 X21.6226 Y27.6784 
G01 X21.6547 Y27.6651 
G01 X21.6793 Y27.6405 
G01 X21.6926 Y27.6084 
G01 X21.6926 Y25.7956 
G01 X21.6793 Y25.7635 
G01 X21.6547 Y25.7389 
G01 X21.6226 Y25.7256 
G01 X21.4006 Y25.7256 
G01 X21.4006 Y25.0674 
G01 X21.7274 Y25.0674 
G01 X21.7595 Y25.0541 
G01 X21.7841 Y25.0295 
G01 X21.7974 Y24.9974 
G01 X21.7974 Y24.1626 
G01 X21.7841 Y24.1305 
G01 X21.7595 Y24.1059 
G01 X21.7274 Y24.0926 
G01 X20.4926 Y24.0926 
G01 X20.4605 Y24.1059 
G01 X20.4359 Y24.1305 
G00 Z2.5400  
G00 X20.4605 Y23.2541 
G01 Z-0.0200 F254   
G01 X20.4926 Y23.2674 F500   
G01 X21.7274 Y23.2674 
G01 X21.7595 Y23.2541 
G01 X21.7841 Y23.2295 
G01 X21.7974 Y23.1974 
G01 X21.7974 Y22.3626 
G01 X21.7841 Y22.3305 
G01 X21.7595 Y22.3059 
G01 X21.7274 Y22.2926 
G01 X21.4006 Y22.2926 
G01 X21.4006 Y22.2004 
G01 X22.9442 Y20.6568 
G01 X23.0826 Y20.6568 
G01 X23.1147 Y20.6435 
G01 X23.1393 Y20.6189 
G01 X23.1526 Y20.5868 
G01 X23.1526 Y18.5200 
G01 X23.1393 Y18.4879 
G01 X23.1147 Y18.4633 
G01 X23.0826 Y18.4500 
G01 X22.3874 Y18.4500 
G01 X22.3553 Y18.4633 
G01 X22.3307 Y18.4879 
G01 X22.3174 Y18.5200 
G01 X22.3174 Y20.4616 
G01 X20.9316 Y21.8475 
G01 X20.8775 Y21.9016 
G01 X20.8392 Y21.9678 
G01 X20.8194 Y22.0417 
G01 X20.8194 Y22.2926 
G01 X20.4926 Y22.2926 
G01 X20.4605 Y22.3059 
G01 X20.4359 Y22.3305 
G01 X20.4226 Y22.3626 
G01 X20.4226 Y23.1974 
G01 X20.4359 Y23.2295 
G01 X20.4605 Y23.2541 
G00 Z2.5400  
G00 X22.0605 Y23.2541 
G01 Z-0.0200 F254   
G01 X22.0926 Y23.2674 F500   
G01 X23.3274 Y23.2674 
G01 X23.3595 Y23.2541 
G01 X23.3841 Y23.2295 
G01 X23.3974 Y23.1974 
G01 X23.3974 Y22.3626 
G01 X23.3841 Y22.3305 
G01 X23.3595 Y22.3059 
G01 X23.3274 Y22.2926 
G01 X23.0006 Y22.2926 
G01 X23.0006 Y22.2004 
G01 X24.2375 Y20.9634 
G01 X24.2758 Y20.8972 
G01 X24.2956 Y20.8233 
G01 X24.2956 Y20.6568 
G01 X24.3526 Y20.6568 
G01 X24.3847 Y20.6435 
G01 X24.4093 Y20.6189 
G01 X24.4226 Y20.5868 
G01 X24.4226 Y18.5200 
G01 X24.4093 Y18.4879 
G01 X24.3847 Y18.4633 
G01 X24.3526 Y18.4500 
G01 X23.6574 Y18.4500 
G01 X23.6253 Y18.4633 
G01 X23.6007 Y18.4879 
G01 X23.5874 Y18.5200 
G01 X23.5874 Y20.5868 
G01 X23.6007 Y20.6189 
G01 X23.6253 Y20.6435 
G01 X23.6574 Y20.6568 
G01 X23.7144 Y20.6568 
G01 X23.7144 Y20.6646 
G01 X22.5316 Y21.8475 
G01 X22.4775 Y21.9016 
G01 X22.4392 Y21.9678 
G01 X22.4194 Y22.0417 
G01 X22.4194 Y22.2926 
G01 X22.0926 Y22.2926 
G01 X22.0605 Y22.3059 
G01 X22.0359 Y22.3305 
G01 X22.0226 Y22.3626 
G01 X22.0226 Y23.1974 
G01 X22.0359 Y23.2295 
G01 X22.0605 Y23.2541 
G00 Z2.5400  
G00 X22.0605 Y24.1059 
G01 Z-0.0200 F254   
G01 X22.0359 Y24.1305 F500   
G01 X22.0226 Y24.1626 
G01 X22.0226 Y24.9974 
G01 X22.0359 Y25.0295 
G01 X22.0605 Y25.0541 
G01 X22.0926 Y25.0674 
G01 X22.4194 Y25.0674 
G01 X22.4194 Y25.7256 
G01 X22.1974 Y25.7256 
G01 X22.1653 Y25.7389 
G01 X22.1407 Y25.7635 
G01 X22.1274 Y25.7956 
G01 X22.1274 Y27.6084 
G01 X22.1407 Y27.6405 
G01 X22.1653 Y27.6651 
G01 X22.1974 Y27.6784 
G01 X23.1466 Y27.6784 
G01 X23.1787 Y27.6651 
G01 X23.2033 Y27.6405 
G01 X23.2166 Y27.6084 
G01 X23.2166 Y25.7956 
G01 X23.2033 Y25.7635 
G01 X23.1787 Y25.7389 
G01 X23.1466 Y25.7256 
G01 X23.0006 Y25.7256 
G01 X23.0006 Y25.0674 
G01 X23.3274 Y25.0674 
G01 X23.3595 Y25.0541 
G01 X23.3841 Y25.0295 
G01 X23.3974 Y24.9974 
G01 X23.3974 Y24.1626 
G01 X23.3841 Y24.1305 
G01 X23.3595 Y24.1059 
G01 X23.3274 Y24.0926 
G01 X22.0926 Y24.0926 
G01 X22.0605 Y24.1059 
G00 Z2.5400  
G00 X23.6359 Y24.1305 
G01 Z-0.0200 F254   
G01 X23.6226 Y24.1626 F500   
G01 X23.6226 Y24.9974 
G01 X23.6359 Y25.0295 
G01 X23.6605 Y25.0541 
G01 X23.6926 Y25.0674 
G01 X24.0194 Y25.0674 
G01 X24.0194 Y25.7256 
G01 X23.8734 Y25.7256 
G01 X23.8413 Y25.7389 
G01 X23.8167 Y25.7635 
G01 X23.8034 Y25.7956 
G01 X23.8034 Y27.6084 
G01 X23.8167 Y27.6405 
G01 X23.8413 Y27.6651 
G01 X23.8734 Y27.6784 
G01 X24.8226 Y27.6784 
G01 X24.8547 Y27.6651 
G01 X24.8793 Y27.6405 
G01 X24.8926 Y27.6084 
G01 X24.8926 Y25.7956 
G01 X24.8793 Y25.7635 
G01 X24.8547 Y25.7389 
G01 X24.8226 Y25.7256 
G01 X24.6006 Y25.7256 
G01 X24.6006 Y25.0674 
G01 X24.9274 Y25.0674 
G01 X24.9595 Y25.0541 
G01 X24.9841 Y25.0295 
G01 X24.9974 Y24.9974 
G01 X24.9974 Y24.1626 
G01 X24.9841 Y24.1305 
G01 X24.9595 Y24.1059 
G01 X24.9274 Y24.0926 
G01 X23.6926 Y24.0926 
G01 X23.6605 Y24.1059 
G01 X23.6359 Y24.1305 
G00 Z2.5400  
G00 X23.6605 Y23.2541 
G01 Z-0.0200 F254   
G01 X23.6926 Y23.2674 F500   
G01 X24.9274 Y23.2674 
G01 X24.9595 Y23.2541 
G01 X24.9841 Y23.2295 
G01 X24.9974 Y23.1974 
G01 X24.9974 Y22.3626 
G01 X24.9841 Y22.3305 
G01 X24.9595 Y22.3059 
G01 X24.9274 Y22.2926 
G01 X24.6006 Y22.2926 
G01 X24.6006 Y22.2004 
G01 X25.5075 Y21.2934 
G01 X25.5458 Y21.2272 
G01 X25.5656 Y21.1533 
G01 X25.5656 Y20.6568 
G01 X25.6226 Y20.6568 
G01 X25.6547 Y20.6435 
G01 X25.6793 Y20.6189 
G01 X25.6926 Y20.5868 
G01 X25.6926 Y18.5200 
G01 X25.6793 Y18.4879 
G01 X25.6547 Y18.4633 
G01 X25.6226 Y18.4500 
G01 X24.9274 Y18.4500 
G01 X24.8953 Y18.4633 
G01 X24.8707 Y18.4879 
G01 X24.8574 Y18.5200 
G01 X24.8574 Y20.5868 
G01 X24.8707 Y20.6189 
G01 X24.8953 Y20.6435 
G01 X24.9274 Y20.6568 
G01 X24.9844 Y20.6568 
G01 X24.9844 Y20.9946 
G01 X24.1316 Y21.8475 
G01 X24.0775 Y21.9016 
G01 X24.0392 Y21.9678 
G01 X24.0194 Y22.0417 
G01 X24.0194 Y22.2926 
G01 X23.6926 Y22.2926 
G01 X23.6605 Y22.3059 
G01 X23.6359 Y22.3305 
G01 X23.6226 Y22.3626 
G01 X23.6226 Y23.1974 
G01 X23.6359 Y23.2295 
G01 X23.6605 Y23.2541 
G00 Z2.5400  
G00 X25.2605 Y23.2541 
G01 Z-0.0200 F254   
G01 X25.2926 Y23.2674 F500   
G01 X26.5274 Y23.2674 
G01 X26.5595 Y23.2541 
G01 X26.5841 Y23.2295 
G01 X26.5974 Y23.1974 
G01 X26.5974 Y22.3626 
G01 X26.5841 Y22.3305 
G01 X26.5595 Y22.3059 
G01 X26.5274 Y22.2926 
G01 X26.2006 Y22.2926 
G01 X26.2006 Y22.2004 
G01 X26.7775 Y21.6234 
G01 X26.8158 Y21.5572 
G01 X26.8356 Y21.4833 
G01 X26.8356 Y20.6568 
G01 X26.8926 Y20.6568 
G01 X26.9247 Y20.6435 
G01 X26.9493 Y20.6189 
G01 X26.9626 Y20.5868 
G01 X26.9626 Y18.5200 
G01 X26.9493 Y18.4879 
G01 X26.9247 Y18.4633 
G01 X26.8926 Y18.4500 
G01 X26.1974 Y18.4500 
G01 X26.1653 Y18.4633 
G01 X26.1407 Y18.4879 
G01 X26.1274 Y18.5200 
G01 X26.1274 Y20.5868 
G01 X26.1407 Y20.6189 
G01 X26.1653 Y20.6435 
G01 X26.1974 Y20.6568 
G01 X26.2544 Y20.6568 
G01 X26.2544 Y21.3246 
G01 X25.7316 Y21.8475 
G01 X25.6775 Y21.9016 
G01 X25.6392 Y21.9678 
G01 X25.6194 Y22.0417 
G01 X25.6194 Y22.2926 
G01 X25.2926 Y22.2926 
G01 X25.2605 Y22.3059 
G01 X25.2359 Y22.3305 
G01 X25.2226 Y22.3626 
G01 X25.2226 Y23.1974 
G01 X25.2359 Y23.2295 
G01 X25.2605 Y23.2541 
G00 Z2.5400  
G00 X25.2605 Y24.1059 
G01 Z-0.0200 F254   
G01 X25.2359 Y24.1305 F500   
G01 X25.2226 Y24.1626 
G01 X25.2226 Y24.9974 
G01 X25.2359 Y25.0295 
G01 X25.2605 Y25.0541 
G01 X25.2926 Y25.0674 
G01 X25.6194 Y25.0674 
G01 X25.6194 Y25.7256 
G01 X25.3974 Y25.7256 
G01 X25.3653 Y25.7389 
G01 X25.3407 Y25.7635 
G01 X25.3274 Y25.7956 
G01 X25.3274 Y27.6084 
G01 X25.3407 Y27.6405 
G01 X25.3653 Y27.6651 
G01 X25.3974 Y27.6784 
G01 X26.3466 Y27.6784 
G01 X26.3787 Y27.6651 
G01 X26.4033 Y27.6405 
G01 X26.4166 Y27.6084 
G01 X26.4166 Y25.7956 
G01 X26.4033 Y25.7635 
G01 X26.3787 Y25.7389 
G01 X26.3466 Y25.7256 
G01 X26.2006 Y25.7256 
G01 X26.2006 Y25.0674 
G01 X26.5274 Y25.0674 
G01 X26.5595 Y25.0541 
G01 X26.5841 Y25.0295 
G01 X26.5974 Y24.9974 
G01 X26.5974 Y24.1626 
G01 X26.5841 Y24.1305 
G01 X26.5595 Y24.1059 
G01 X26.5274 Y24.0926 
G01 X25.2926 Y24.0926 
G01 X25.2605 Y24.1059 
G00 Z2.5400  
G00 X26.8359 Y24.1305 
G01 Z-0.0200 F254   
G01 X26.8226 Y24.1626 F500   
G01 X26.8226 Y24.9974 
G01 X26.8359 Y25.0295 
G01 X26.8605 Y25.0541 
G01 X26.8926 Y25.0674 
G01 X27.2194 Y25.0674 
G01 X27.2194 Y25.7256 
G01 X27.0734 Y25.7256 
G01 X27.0413 Y25.7389 
G01 X27.0167 Y25.7635 
G01 X27.0034 Y25.7956 
G01 X27.0034 Y27.6084 
G01 X27.0167 Y27.6405 
G01 X27.0413 Y27.6651 
G01 X27.0734 Y27.6784 
G01 X28.0226 Y27.6784 
G01 X28.0547 Y27.6651 
G01 X28.0793 Y27.6405 
G01 X28.0926 Y27.6084 
G01 X28.0926 Y25.7956 
G01 X28.0793 Y25.7635 
G01 X28.0547 Y25.7389 
G01 X28.0226 Y25.7256 
G01 X27.8006 Y25.7256 
G01 X27.8006 Y25.0674 
G01 X28.1274 Y25.0674 
G01 X28.1595 Y25.0541 
G01 X28.1841 Y25.0295 
G01 X28.1974 Y24.9974 
G01 X28.1974 Y24.1626 
G01 X28.1841 Y24.1305 
G01 X28.1595 Y24.1059 
G01 X28.1274 Y24.0926 
G01 X26.8926 Y24.0926 
G01 X26.8605 Y24.1059 
G01 X26.8359 Y24.1305 
G00 Z2.5400  
G00 X26.8605 Y23.2541 
G01 Z-0.0200 F254   
G01 X26.8926 Y23.2674 F500   
G01 X28.1274 Y23.2674 
G01 X28.1595 Y23.2541 
G01 X28.1841 Y23.2295 
G01 X28.1974 Y23.1974 
G01 X28.1974 Y22.3626 
G01 X28.1841 Y22.3305 
G01 X28.1595 Y22.3059 
G01 X28.1274 Y22.2926 
G01 X27.8006 Y22.2926 
G01 X27.8006 Y22.2004 
G01 X28.0475 Y21.9534 
G01 X28.0858 Y21.8872 
G01 X28.1056 Y21.8133 
G01 X28.1056 Y20.6568 
G01 X28.1626 Y20.6568 
G01 X28.1947 Y20.6435 
G01 X28.2193 Y20.6189 
G01 X28.2326 Y20.5868 
G01 X28.2326 Y18.5200 
G01 X28.2193 Y18.4879 
G01 X28.1947 Y18.4633 
G01 X28.1626 Y18.4500 
G01 X27.4674 Y18.4500 
G01 X27.4353 Y18.4633 
G01 X27.4107 Y18.4879 
G01 X27.3974 Y18.5200 
G01 X27.3974 Y20.5868 
G01 X27.4107 Y20.6189 
G01 X27.4353 Y20.6435 
G01 X27.4674 Y20.6568 
G01 X27.5244 Y20.6568 
G01 X27.5244 Y21.6546 
G01 X27.3316 Y21.8475 
G01 X27.2775 Y21.9016 
G01 X27.2392 Y21.9678 
G01 X27.2194 Y22.0417 
G01 X27.2194 Y22.2926 
G01 X26.8926 Y22.2926 
G01 X26.8605 Y22.3059 
G01 X26.8359 Y22.3305 
G01 X26.8226 Y22.3626 
G01 X26.8226 Y23.1974 
G01 X26.8359 Y23.2295 
G01 X26.8605 Y23.2541 
G00 Z2.5400  
G00 X28.4605 Y23.2541 
G01 Z-0.0200 F254   
G01 X28.4926 Y23.2674 F500   
G01 X29.7274 Y23.2674 
G01 X29.7595 Y23.2541 
G01 X29.7841 Y23.2295 
G01 X29.7974 Y23.1974 
G01 X29.7974 Y22.3626 
G01 X29.7841 Y22.3305 
G01 X29.7595 Y22.3059 
G01 X29.7274 Y22.2926 
G01 X29.3756 Y22.2926 
G01 X29.3756 Y20.6568 
G01 X29.4326 Y20.6568 
G01 X29.4647 Y20.6435 
G01 X29.4893 Y20.6189 
G01 X29.5026 Y20.5868 
G01 X29.5026 Y18.5200 
G01 X29.4893 Y18.4879 
G01 X29.4647 Y18.4633 
G01 X29.4326 Y18.4500 
G01 X28.7374 Y18.4500 
G01 X28.7053 Y18.4633 
G01 X28.6807 Y18.4879 
G01 X28.6674 Y18.5200 
G01 X28.6674 Y20.5868 
G01 X28.6807 Y20.6189 
G01 X28.7053 Y20.6435 
G01 X28.7374 Y20.6568 
G01 X28.7944 Y20.6568 
G01 X28.7944 Y22.2926 
G01 X28.4926 Y22.2926 
G01 X28.4605 Y22.3059 
G01 X28.4359 Y22.3305 
G01 X28.4226 Y22.3626 
G01 X28.4226 Y23.1974 
G01 X28.4359 Y23.2295 
G01 X28.4605 Y23.2541 
G00 Z2.5400  
G00 X28.4605 Y24.1059 
G01 Z-0.0200 F254   
G01 X28.4359 Y24.1305 F500   
G01 X28.4226 Y24.1626 
G01 X28.4226 Y24.9974 
G01 X28.4359 Y25.0295 
G01 X28.4605 Y25.0541 
G01 X28.4926 Y25.0674 
G01 X28.8194 Y25.0674 
G01 X28.8194 Y25.7256 
G01 X28.5974 Y25.7256 
G01 X28.5653 Y25.7389 
G01 X28.5407 Y25.7635 
G01 X28.5274 Y25.7956 
G01 X28.5274 Y27.6084 
G01 X28.5407 Y27.6405 
G01 X28.5653 Y27.6651 
G01 X28.5974 Y27.6784 
G01 X29.5466 Y27.6784 
G01 X29.5787 Y27.6651 
G01 X29.6033 Y27.6405 
G01 X29.6166 Y27.6084 
G01 X29.6166 Y25.7956 
G01 X29.6033 Y25.7635 
G01 X29.5787 Y25.7389 
G01 X29.5466 Y25.7256 
G01 X29.4006 Y25.7256 
G01 X29.4006 Y25.0674 
G01 X29.7274 Y25.0674 
G01 X29.7595 Y25.0541 
G01 X29.7841 Y25.0295 
G01 X29.7974 Y24.9974 
G01 X29.7974 Y24.1626 
G01 X29.7841 Y24.1305 
G01 X29.7595 Y24.1059 
G01 X29.7274 Y24.0926 
G01 X28.4926 Y24.0926 
G01 X28.4605 Y24.1059 
G00 Z2.5400  
G00 X30.0359 Y24.1305 
G01 Z-0.0200 F254   
G01 X30.0226 Y24.1626 F500   
G01 X30.0226 Y24.9974 
G01 X30.0359 Y25.0295 
G01 X30.0605 Y25.0541 
G01 X30.0926 Y25.0674 
G01 X30.4194 Y25.0674 
G01 X30.4194 Y25.7256 
G01 X30.2734 Y25.7256 
G01 X30.2413 Y25.7389 
G01 X30.2167 Y25.7635 
G01 X30.2034 Y25.7956 
G01 X30.2034 Y27.6084 
G01 X30.2167 Y27.6405 
G01 X30.2413 Y27.6651 
G01 X30.2734 Y27.6784 
G01 X31.2226 Y27.6784 
G01 X31.2547 Y27.6651 
G01 X31.2793 Y27.6405 
G01 X31.2926 Y27.6084 
G01 X31.2926 Y25.7956 
G01 X31.2793 Y25.7635 
G01 X31.2547 Y25.7389 
G01 X31.2226 Y25.7256 
G01 X31.0006 Y25.7256 
G01 X31.0006 Y25.0674 
G01 X31.3274 Y25.0674 
G01 X31.3595 Y25.0541 
G01 X31.3841 Y25.0295 
G01 X31.3974 Y24.9974 
G01 X31.3974 Y24.1626 
G01 X31.3841 Y24.1305 
G01 X31.3595 Y24.1059 
G01 X31.3274 Y24.0926 
G01 X30.0926 Y24.0926 
G01 X30.0605 Y24.1059 
G01 X30.0359 Y24.1305 
G00 Z2.5400  
G00 X30.0605 Y23.2541 
G01 Z-0.0200 F254   
G01 X30.0926 Y23.2674 F500   
G01 X31.3274 Y23.2674 
G01 X31.3595 Y23.2541 
G01 X31.3841 Y23.2295 
G01 X31.3974 Y23.1974 
G01 X31.3974 Y22.3626 
G01 X31.3841 Y22.3305 
G01 X31.3595 Y22.3059 
G01 X31.3274 Y22.2926 
G01 X31.0006 Y22.2926 
G01 X31.0006 Y22.0417 
G01 X30.9808 Y21.9678 
G01 X30.9425 Y21.9016 
G01 X30.8884 Y21.8475 
G01 X30.6456 Y21.6046 
G01 X30.6456 Y20.6568 
G01 X30.7026 Y20.6568 
G01 X30.7347 Y20.6435 
G01 X30.7593 Y20.6189 
G01 X30.7726 Y20.5868 
G01 X30.7726 Y18.5200 
G01 X30.7593 Y18.4879 
G01 X30.7347 Y18.4633 
G01 X30.7026 Y18.4500 
G01 X30.0074 Y18.4500 
G01 X29.9753 Y18.4633 
G01 X29.9507 Y18.4879 
G01 X29.9374 Y18.5200 
G01 X29.9374 Y20.5868 
G01 X29.9507 Y20.6189 
G01 X29.9753 Y20.6435 
G01 X30.0074 Y20.6568 
G01 X30.0644 Y20.6568 
G01 X30.0644 Y21.7633 
G01 X30.0842 Y21.8372 
G01 X30.1225 Y21.9034 
G01 X30.4194 Y22.2004 
G01 X30.4194 Y22.2926 
G01 X30.0926 Y22.2926 
G01 X30.0605 Y22.3059 
G01 X30.0359 Y22.3305 
G01 X30.0226 Y22.3626 
G01 X30.0226 Y23.1974 
G01 X30.0359 Y23.2295 
G01 X30.0605 Y23.2541 
G00 Z2.5400  
G00 X31.6605 Y23.2541 
G01 Z-0.0200 F254   
G01 X31.6926 Y23.2674 F500   
G01 X32.9274 Y23.2674 
G01 X32.9595 Y23.2541 
G01 X32.9841 Y23.2295 
G01 X32.9974 Y23.1974 
G01 X32.9974 Y22.3626 
G01 X32.9841 Y22.3305 
G01 X32.9595 Y22.3059 
G01 X32.9274 Y22.2926 
G01 X32.6006 Y22.2926 
G01 X32.6006 Y19.9174 
G01 X32.8774 Y19.9174 
G01 X32.9095 Y19.9041 
G01 X32.9341 Y19.8795 
G01 X32.9474 Y19.8474 
G01 X32.9474 Y18.7126 
G01 X32.9341 Y18.6805 
G01 X32.9095 Y18.6559 
G01 X32.8774 Y18.6426 
G01 X31.7426 Y18.6426 
G01 X31.7105 Y18.6559 
G01 X31.6859 Y18.6805 
G01 X31.6726 Y18.7126 
G01 X31.6726 Y19.8474 
G01 X31.6859 Y19.8795 
G01 X31.7105 Y19.9041 
G01 X31.7426 Y19.9174 
G01 X32.0194 Y19.9174 
G01 X32.0194 Y22.2926 
G01 X31.6926 Y22.2926 
G01 X31.6605 Y22.3059 
G01 X31.6359 Y22.3305 
G01 X31.6226 Y22.3626 
G01 X31.6226 Y23.1974 
G01 X31.6359 Y23.2295 
G01 X31.6605 Y23.2541 
G00 Z2.5400  
G00 X31.6605 Y24.1059 
G01 Z-0.0200 F254   
G01 X31.6359 Y24.1305 F500   
G01 X31.6226 Y24.1626 
G01 X31.6226 Y24.9974 
G01 X31.6359 Y25.0295 
G01 X31.6605 Y25.0541 
G01 X31.6926 Y25.0674 
G01 X32.0194 Y25.0674 
G01 X32.0194 Y25.7256 
G01 X31.7974 Y25.7256 
G01 X31.7653 Y25.7389 
G01 X31.7407 Y25.7635 
G01 X31.7274 Y25.7956 
G01 X31.7274 Y27.6084 
G01 X31.7407 Y27.6405 
G01 X31.7653 Y27.6651 
G01 X31.7974 Y27.6784 
G01 X32.7466 Y27.6784 
G01 X32.7787 Y27.6651 
G01 X32.8033 Y27.6405 
G01 X32.8166 Y27.6084 
G01 X32.8166 Y25.7956 
G01 X32.8033 Y25.7635 
G01 X32.7787 Y25.7389 
G01 X32.7466 Y25.7256 
G01 X32.6006 Y25.7256 
G01 X32.6006 Y25.0674 
G01 X32.9274 Y25.0674 
G01 X32.9595 Y25.0541 
G01 X32.9841 Y25.0295 
G01 X32.9974 Y24.9974 
G01 X32.9974 Y24.1626 
G01 X32.9841 Y24.1305 
G01 X32.9595 Y24.1059 
G01 X32.9274 Y24.0926 
G01 X31.6926 Y24.0926 
G01 X31.6605 Y24.1059 
G00 Z2.5400  
G00 X33.2359 Y24.1305 
G01 Z-0.0200 F254   
G01 X33.2226 Y24.1626 F500   
G01 X33.2226 Y24.9974 
G01 X33.2359 Y25.0295 
G01 X33.2605 Y25.0541 
G01 X33.2926 Y25.0674 
G01 X33.6194 Y25.0674 
G01 X33.6194 Y25.7256 
G01 X33.4734 Y25.7256 
G01 X33.4413 Y25.7389 
G01 X33.4167 Y25.7635 
G01 X33.4034 Y25.7956 
G01 X33.4034 Y27.6084 
G01 X33.4167 Y27.6405 
G01 X33.4413 Y27.6651 
G01 X33.4734 Y27.6784 
G01 X34.4226 Y27.6784 
G01 X34.4547 Y27.6651 
G01 X34.4793 Y27.6405 
G01 X34.4926 Y27.6084 
G01 X34.4926 Y25.7956 
G01 X34.4793 Y25.7635 
G01 X34.4547 Y25.7389 
G01 X34.4226 Y25.7256 
G01 X34.2006 Y25.7256 
G01 X34.2006 Y25.0674 
G01 X34.5274 Y25.0674 
G01 X34.5595 Y25.0541 
G01 X34.5841 Y25.0295 
G01 X34.5974 Y24.9974 
G01 X34.5974 Y24.1626 
G01 X34.5841 Y24.1305 
G01 X34.5595 Y24.1059 
G01 X34.5274 Y24.0926 
G01 X33.2926 Y24.0926 
G01 X33.2605 Y24.1059 
G01 X33.2359 Y24.1305 
G00 Z2.5400  
G00 X33.2605 Y23.2541 
G01 Z-0.0200 F254   
G01 X33.2926 Y23.2674 F500   
G01 X34.5274 Y23.2674 
G01 X34.5595 Y23.2541 
G01 X34.5841 Y23.2295 
G01 X34.5974 Y23.1974 
G01 X34.5974 Y22.3626 
G01 X34.5841 Y22.3305 
G01 X34.5595 Y22.3059 
G01 X34.5274 Y22.2926 
G01 X34.2006 Y22.2926 
G01 X34.2006 Y22.2004 
G01 X35.7442 Y20.6568 
G01 X35.8826 Y20.6568 
G01 X35.9147 Y20.6435 
G01 X35.9393 Y20.6189 
G01 X35.9526 Y20.5868 
G01 X35.9526 Y18.5200 
G01 X35.9393 Y18.4879 
G01 X35.9147 Y18.4633 
G01 X35.8826 Y18.4500 
G01 X35.1874 Y18.4500 
G01 X35.1553 Y18.4633 
G01 X35.1307 Y18.4879 
G01 X35.1174 Y18.5200 
G01 X35.1174 Y20.4616 
G01 X33.7316 Y21.8475 
G01 X33.6775 Y21.9016 
G01 X33.6392 Y21.9678 
G01 X33.6194 Y22.0417 
G01 X33.6194 Y22.2926 
G01 X33.2926 Y22.2926 
G01 X33.2605 Y22.3059 
G01 X33.2359 Y22.3305 
G01 X33.2226 Y22.3626 
G01 X33.2226 Y23.1974 
G01 X33.2359 Y23.2295 
G01 X33.2605 Y23.2541 
G00 Z2.5400  
G00 X34.8605 Y23.2541 
G01 Z-0.0200 F254   
G01 X34.8926 Y23.2674 F500   
G01 X36.1274 Y23.2674 
G01 X36.1595 Y23.2541 
G01 X36.1841 Y23.2295 
G01 X36.1974 Y23.1974 
G01 X36.1974 Y22.3626 
G01 X36.1841 Y22.3305 
G01 X36.1595 Y22.3059 
G01 X36.1274 Y22.2926 
G01 X35.8006 Y22.2926 
G01 X35.8006 Y22.2004 
G01 X37.0375 Y20.9634 
G01 X37.0758 Y20.8972 
G01 X37.0956 Y20.8233 
G01 X37.0956 Y20.6568 
G01 X37.1526 Y20.6568 
G01 X37.1847 Y20.6435 
G01 X37.2093 Y20.6189 
G01 X37.2226 Y20.5868 
G01 X37.2226 Y18.5200 
G01 X37.2093 Y18.4879 
G01 X37.1847 Y18.4633 
G01 X37.1526 Y18.4500 
G01 X36.4574 Y18.4500 
G01 X36.4253 Y18.4633 
G01 X36.4007 Y18.4879 
G01 X36.3874 Y18.5200 
G01 X36.3874 Y20.5868 
G01 X36.4007 Y20.6189 
G01 X36.4253 Y20.6435 
G01 X36.4574 Y20.6568 
G01 X36.5144 Y20.6568 
G01 X36.5144 Y20.6646 
G01 X35.3316 Y21.8475 
G01 X35.2775 Y21.9016 
G01 X35.2392 Y21.9678 
G01 X35.2194 Y22.0417 
G01 X35.2194 Y22.2926 
G01 X34.8926 Y22.2926 
G01 X34.8605 Y22.3059 
G01 X34.8359 Y22.3305 
G01 X34.8226 Y22.3626 
G01 X34.8226 Y23.1974 
G01 X34.8359 Y23.2295 
G01 X34.8605 Y23.2541 
G00 Z2.5400  
G00 X34.8605 Y24.1059 
G01 Z-0.0200 F254   
G01 X34.8359 Y24.1305 F500   
G01 X34.8226 Y24.1626 
G01 X34.8226 Y24.9974 
G01 X34.8359 Y25.0295 
G01 X34.8605 Y25.0541 
G01 X34.8926 Y25.0674 
G01 X35.2194 Y25.0674 
G01 X35.2194 Y25.7256 
G01 X34.9974 Y25.7256 
G01 X34.9653 Y25.7389 
G01 X34.9407 Y25.7635 
G01 X34.9274 Y25.7956 
G01 X34.9274 Y27.6084 
G01 X34.9407 Y27.6405 
G01 X34.9653 Y27.6651 
G01 X34.9974 Y27.6784 
G01 X35.9466 Y27.6784 
G01 X35.9787 Y27.6651 
G01 X36.0033 Y27.6405 
G01 X36.0166 Y27.6084 
G01 X36.0166 Y25.7956 
G01 X36.0033 Y25.7635 
G01 X35.9787 Y25.7389 
G01 X35.9466 Y25.7256 
G01 X35.8006 Y25.7256 
G01 X35.8006 Y25.0674 
G01 X36.1274 Y25.0674 
G01 X36.1595 Y25.0541 
G01 X36.1841 Y25.0295 
G01 X36.1974 Y24.9974 
G01 X36.1974 Y24.1626 
G01 X36.1841 Y24.1305 
G01 X36.1595 Y24.1059 
G01 X36.1274 Y24.0926 
G01 X34.8926 Y24.0926 
G01 X34.8605 Y24.1059 
G00 Z2.5400  
G00 X36.4359 Y24.1305 
G01 Z-0.0200 F254   
G01 X36.4226 Y24.1626 F500   
G01 X36.4226 Y24.9974 
G01 X36.4359 Y25.0295 
G01 X36.4605 Y25.0541 
G01 X36.4926 Y25.0674 
G01 X36.8194 Y25.0674 
G01 X36.8194 Y25.7256 
G01 X36.6734 Y25.7256 
G01 X36.6413 Y25.7389 
G01 X36.6167 Y25.7635 
G01 X36.6034 Y25.7956 
G01 X36.6034 Y27.6084 
G01 X36.6167 Y27.6405 
G01 X36.6413 Y27.6651 
G01 X36.6734 Y27.6784 
G01 X37.6226 Y27.6784 
G01 X37.6547 Y27.6651 
G01 X37.6793 Y27.6405 
G01 X37.6926 Y27.6084 
G01 X37.6926 Y25.7956 
G01 X37.6793 Y25.7635 
G01 X37.6547 Y25.7389 
G01 X37.6226 Y25.7256 
G01 X37.4006 Y25.7256 
G01 X37.4006 Y25.0674 
G01 X37.7274 Y25.0674 
G01 X37.7595 Y25.0541 
G01 X37.7841 Y25.0295 
G01 X37.7974 Y24.9974 
G01 X37.7974 Y24.1626 
G01 X37.7841 Y24.1305 
G01 X37.7595 Y24.1059 
G01 X37.7274 Y24.0926 
G01 X36.4926 Y24.0926 
G01 X36.4605 Y24.1059 
G01 X36.4359 Y24.1305 
G00 Z2.5400  
G00 X36.4605 Y23.2541 
G01 Z-0.0200 F254   
G01 X36.4926 Y23.2674 F500   
G01 X37.7274 Y23.2674 
G01 X37.7595 Y23.2541 
G01 X37.7841 Y23.2295 
G01 X37.7974 Y23.1974 
G01 X37.7974 Y22.3626 
G01 X37.7841 Y22.3305 
G01 X37.7595 Y22.3059 
G01 X37.7274 Y22.2926 
G01 X37.4006 Y22.2926 
G01 X37.4006 Y22.2004 
G01 X38.3075 Y21.2934 
G01 X38.3458 Y21.2272 
G01 X38.3656 Y21.1533 
G01 X38.3656 Y20.6568 
G01 X38.4226 Y20.6568 
G01 X38.4547 Y20.6435 
G01 X38.4793 Y20.6189 
G01 X38.4926 Y20.5868 
G01 X38.4926 Y18.5200 
G01 X38.4793 Y18.4879 
G01 X38.4547 Y18.4633 
G01 X38.4226 Y18.4500 
G01 X37.7274 Y18.4500 
G01 X37.6953 Y18.4633 
G01 X37.6707 Y18.4879 
G01 X37.6574 Y18.5200 
G01 X37.6574 Y20.5868 
G01 X37.6707 Y20.6189 
G01 X37.6953 Y20.6435 
G01 X37.7274 Y20.6568 
G01 X37.7844 Y20.6568 
G01 X37.7844 Y20.9946 
G01 X36.9316 Y21.8475 
G01 X36.8775 Y21.9016 
G01 X36.8392 Y21.9678 
G01 X36.8194 Y22.0417 
G01 X36.8194 Y22.2926 
G01 X36.4926 Y22.2926 
G01 X36.4605 Y22.3059 
G01 X36.4359 Y22.3305 
G01 X36.4226 Y22.3626 
G01 X36.4226 Y23.1974 
G01 X36.4359 Y23.2295 
G01 X36.4605 Y23.2541 
G00 Z2.5400  
G00 X38.0605 Y23.2541 
G01 Z-0.0200 F254   
G01 X38.0926 Y23.2674 F500   
G01 X39.3274 Y23.2674 
G01 X39.3595 Y23.2541 
G01 X39.3841 Y23.2295 
G01 X39.3974 Y23.1974 
G01 X39.3974 Y22.3626 
G01 X39.3841 Y22.3305 
G01 X39.3595 Y22.3059 
G01 X39.3274 Y22.2926 
G01 X39.0006 Y22.2926 
G01 X39.0006 Y22.2004 
G01 X39.5775 Y21.6234 
G01 X39.6158 Y21.5572 
G01 X39.6356 Y21.4833 
G01 X39.6356 Y20.6568 
G01 X39.6926 Y20.6568 
G01 X39.7247 Y20.6435 
G01 X39.7493 Y20.6189 
G01 X39.7626 Y20.5868 
G01 X39.7626 Y18.5200 
G01 X39.7493 Y18.4879 
G01 X39.7247 Y18.4633 
G01 X39.6926 Y18.4500 
G01 X38.9974 Y18.4500 
G01 X38.9653 Y18.4633 
G01 X38.9407 Y18.4879 
G01 X38.9274 Y18.5200 
G01 X38.9274 Y20.5868 
G01 X38.9407 Y20.6189 
G01 X38.9653 Y20.6435 
G01 X38.9974 Y20.6568 
G01 X39.0544 Y20.6568 
G01 X39.0544 Y21.3246 
G01 X38.5316 Y21.8475 
G01 X38.4775 Y21.9016 
G01 X38.4392 Y21.9678 
G01 X38.4194 Y22.0417 
G01 X38.4194 Y22.2926 
G01 X38.0926 Y22.2926 
G01 X38.0605 Y22.3059 
G01 X38.0359 Y22.3305 
G01 X38.0226 Y22.3626 
G01 X38.0226 Y23.1974 
G01 X38.0359 Y23.2295 
G01 X38.0605 Y23.2541 
G00 Z2.5400  
G00 X38.0605 Y24.1059 
G01 Z-0.0200 F254   
G01 X38.0359 Y24.1305 F500   
G01 X38.0226 Y24.1626 
G01 X38.0226 Y24.9974 
G01 X38.0359 Y25.0295 
G01 X38.0605 Y25.0541 
G01 X38.0926 Y25.0674 
G01 X38.4194 Y25.0674 
G01 X38.4194 Y25.7256 
G01 X38.1974 Y25.7256 
G01 X38.1653 Y25.7389 
G01 X38.1407 Y25.7635 
G01 X38.1274 Y25.7956 
G01 X38.1274 Y27.6084 
G01 X38.1407 Y27.6405 
G01 X38.1653 Y27.6651 
G01 X38.1974 Y27.6784 
G01 X39.1466 Y27.6784 
G01 X39.1787 Y27.6651 
G01 X39.2033 Y27.6405 
G01 X39.2166 Y27.6084 
G01 X39.2166 Y25.7956 
G01 X39.2033 Y25.7635 
G01 X39.1787 Y25.7389 
G01 X39.1466 Y25.7256 
G01 X39.0006 Y25.7256 
G01 X39.0006 Y25.0674 
G01 X39.3274 Y25.0674 
G01 X39.3595 Y25.0541 
G01 X39.3841 Y25.0295 
G01 X39.3974 Y24.9974 
G01 X39.3974 Y24.1626 
G01 X39.3841 Y24.1305 
G01 X39.3595 Y24.1059 
G01 X39.3274 Y24.0926 
G01 X38.0926 Y24.0926 
G01 X38.0605 Y24.1059 
G00 Z2.5400  
