(.../pcb-gcode-3.6.2.4/pcb-gcode.ulp)
(Copyright 2005 - 2012 by John Johnson)
(See readme.txt for licensing terms.)
(This file generated from the board:)
(.../eagleworkspace/PovSheild24/povsheild4x8.brd)
(Current profile is .../pcb-gcode-3.6.2.4/profiles/mach.pp  )
(This file generated 04-Aug-15 4:28:50 PM)
(Settings from pcb-machine.h)
(spindle on time = 3.0000)
(spindle speed = 20000.0000)
(tool change at 0.0000  0.0000  2.4000  )
(feed rate xy = F0     )
(feed rate z  = F50    )
(Z Axis Settings)
(  High     Up        Down     Drill)
(12.7000 	2.5400  	-0.0200 	-2.0000 )
(Settings from pcb-defaults.h)
(isolate min = 0.0254)
(isolate max = 0.5080)
(isolate step = 0.1270)
(Generated top outlines, top drill, )
(Unit of measure: mm)
( Tool|       Size       |  Min Sub |  Max Sub |   Count )
( T01 | 0.600mm 0.0236in | 0.0000in | 0.0000in |       0 )
( T02 | 1.016mm 0.0400in | 0.0000in | 0.0000in |       0 )
(Metric Mode)
G21
(Absolute Coordinates)
G90
S20000
G00 Z12.7000 
G00 X0.0000  Y0.0000  
M03
G04 P3.000000
M05
G00 Z2.4000  
M00 T01  ; 0.6000  
G00 Z0.0000  
M00 
G00 Z2.5400  
M03
G04 P3.000000
G82 X11.1100 Y8.8800  Z-2.0000 F50    R2.5400  P1.000000
G82 X12.7100 Y7.6800  
G82 X12.7100 Y11.2800 
G82 X11.1100 Y11.2800 
G82 X19.5100 Y13.6800 
G82 X23.9100 Y11.2800 
G82 X25.5100 Y11.2800 
G82 X23.9100 Y8.8800  
G82 X25.5100 Y7.6800  
G82 X32.3100 Y13.6800 
G82 X36.7100 Y11.2800 
G82 X38.3100 Y11.2800 
G82 X36.7100 Y8.8800  
G82 X38.3100 Y7.6800  
G82 X45.1100 Y13.6800 
G82 X49.5100 Y11.2800 
G82 X51.1100 Y11.2800 
G82 X49.5100 Y8.8800  
G82 X51.1100 Y7.6800  
G82 X57.9100 Y13.6800 
G82 X62.3100 Y11.2800 
G82 X63.9100 Y11.2800 
G82 X62.3100 Y8.8800  
G82 X63.9100 Y7.6800  
G82 X70.7100 Y13.6800 
G82 X74.7100 Y11.2800 
G82 X76.3100 Y11.2800 
G82 X77.9100 Y11.2800 
G82 X77.9100 Y7.6800  
G82 X76.3100 Y7.6800  
G82 X74.7100 Y8.8800  
G82 X70.7100 Y19.2800 
G82 X57.9100 Y19.2800 
G82 X45.1100 Y19.2800 
G82 X32.3100 Y19.2800 
G82 X19.5100 Y19.2800 
G82 X18.3100 Y38.4800 
G82 X18.3100 Y42.8800 
G82 X24.7100 Y45.6800 
G82 X26.3100 Y45.6800 
G82 X26.3100 Y48.0800 
G82 X24.7100 Y49.2800 
G82 X43.9100 Y42.8800 
G82 X43.9100 Y38.4800 
G82 X50.3100 Y45.6800 
G82 X51.9100 Y45.6800 
G82 X51.9100 Y48.0800 
G82 X50.3100 Y49.2800 
G82 X69.5100 Y42.8800 
G82 X69.5100 Y38.4800 
G82 X76.3100 Y45.6800 
G82 X77.9100 Y45.6800 
G82 X77.9100 Y49.2800 
G82 X76.3100 Y49.2800 
G82 X104.6700 Y42.8800 
G82 X104.6700 Y38.4800 
G82 X111.0700 Y45.6800 
G82 X112.6700 Y45.6800 
G82 X112.6700 Y48.0800 
G82 X111.0700 Y49.2800 
G82 X130.2700 Y42.8800 
G82 X130.2700 Y38.4800 
G82 X136.6700 Y45.6800 
G82 X138.2700 Y45.6800 
G82 X138.2700 Y48.0800 
G82 X136.6700 Y49.2800 
G82 X155.8700 Y42.8800 
G82 X155.8700 Y38.4800 
G82 X162.6700 Y45.6800 
G82 X164.2700 Y45.6800 
G82 X164.2700 Y49.2800 
G82 X162.6700 Y49.2800 
G82 X157.0700 Y19.2800 
G82 X157.0700 Y13.6800 
G82 X161.0700 Y11.2800 
G82 X162.6700 Y11.2800 
G82 X164.2700 Y11.2800 
G82 X164.2700 Y7.6800  
G82 X162.6700 Y7.6800  
G82 X161.0700 Y8.8800  
G82 X150.2700 Y7.6800  
G82 X148.6700 Y8.8800  
G82 X148.6700 Y11.2800 
G82 X150.2700 Y11.2800 
G82 X144.2700 Y13.6800 
G82 X144.2700 Y19.2800 
G82 X137.4700 Y11.2800 
G82 X135.8700 Y11.2800 
G82 X135.8700 Y8.8800  
G82 X137.4700 Y7.6800  
G82 X131.4700 Y13.6800 
G82 X131.4700 Y19.2800 
G82 X124.6700 Y11.2800 
G82 X123.0700 Y11.2800 
G82 X123.0700 Y8.8800  
G82 X124.6700 Y7.6800  
G82 X118.6700 Y13.6800 
G82 X118.6700 Y19.2800 
G82 X111.8700 Y11.2800 
G82 X110.2700 Y11.2800 
G82 X110.2700 Y8.8800  
G82 X111.8700 Y7.6800  
G82 X105.8700 Y13.6800 
G82 X105.8700 Y19.2800 
G82 X99.0700 Y11.2800 
G82 X97.4700 Y11.2800 
G82 X97.4700 Y8.8800  
G82 X99.0700 Y7.6800  
M05
G00 Z2.4000  
G00 X0.0000  Y0.0000  
M00 T02  ; 1.0160  
G00 Z0.0000  
M00 
G00 Z2.5400  
M03
G04 P3.000000
G82 X42.0000 Y4.6200  Z-2.0000 F50    R2.5400  P1.000000
G82 X44.5400 Y4.6200  
G82 X47.0800 Y4.6200  
G82 X49.6200 Y4.6200  
G82 X52.1600 Y4.6200  
G82 X54.7000 Y4.6200  
G82 X57.2400 Y4.6200  
G82 X59.7800 Y4.6200  
G82 X63.5900 Y4.6200  
G82 X66.1300 Y4.6200  
G82 X68.6700 Y4.6200  
G82 X71.2100 Y4.6200  
G82 X73.7500 Y4.6200  
G82 X76.2900 Y4.6200  
G82 X78.8300 Y4.6200  
G82 X81.3700 Y4.6200  
G82 X128.3600 Y4.6200  
G82 X130.9000 Y4.6200  
G82 X133.4400 Y4.6200  
G82 X135.9800 Y4.6200  
G82 X138.5200 Y4.6200  
G82 X141.0600 Y4.6200  
G82 X143.6000 Y4.6200  
G82 X146.1400 Y4.6200  
G82 X149.9500 Y4.6200  
G82 X152.4900 Y4.6200  
G82 X155.0300 Y4.6200  
G82 X157.5700 Y4.6200  
G82 X160.1100 Y4.6200  
G82 X162.6500 Y4.6200  
G82 X165.1900 Y4.6200  
G82 X167.7300 Y4.6200  
G82 X158.8400 Y52.8800 
G82 X156.3000 Y52.8800 
G82 X153.7600 Y52.8800 
G82 X151.2200 Y52.8800 
G82 X148.6800 Y52.8800 
G82 X146.1400 Y52.8800 
G82 X141.0600 Y52.8800 
G82 X138.5200 Y52.8800 
G82 X135.9800 Y52.8800 
G82 X133.4400 Y52.8800 
G82 X130.9000 Y52.8800 
G82 X128.3600 Y52.8800 
G82 X72.4800 Y52.8800 
G82 X69.9400 Y52.8800 
G82 X67.4000 Y52.8800 
G82 X64.8600 Y52.8800 
G82 X62.3200 Y52.8800 
G82 X59.7800 Y52.8800 
G82 X54.7000 Y52.8800 
G82 X52.1600 Y52.8800 
G82 X49.6200 Y52.8800 
G82 X47.0800 Y52.8800 
G82 X44.5400 Y52.8800 
G82 X42.0000 Y52.8800 
T01 
G00 Z12.7000 
M05
M02
