(.../pcb-gcode-3.6.2.4/pcb-gcode.ulp)
(Copyright 2005 - 2012 by John Johnson)
(See readme.txt for licensing terms.)
(This file generated from the board:)
(.../eagleworkspace/PovSheild24/povsheild4x8.brd)
(Current profile is .../pcb-gcode-3.6.2.4/profiles/mach.pp  )
(This file generated 04-Aug-15 4:28:56 PM)
(Settings from pcb-machine.h)
(spindle on time = 3.0000)
(spindle speed = 15000.0000)
(milling depth = -1.8000)
(tool change at 0.0000  0.0000  2.4000  )
(feed rate xy = F200   )
(feed rate z  = F50    )
(Z Axis Settings)
(  High     Up        Down     Drill)
(12.7000 	2.5400  	-0.0200 	-2.0000 )
(Settings from pcb-defaults.h)
(isolate min = 0.0254)
(isolate max = 0.5080)
(isolate step = 0.1270)
(Generated top outlines, top drill, )
(Unit of measure: mm)
(Metric Mode)
G21
(Absolute Coordinates)
G90
S15000
G00 Z12.7000 
G00 X0.0000  Y0.0000  
M03
G04 P3.000000
G00 Z2.5400  
G00 X-7.3510 Y1.6800  
G01 Z-1.8000 F50    
G01 X-81.8030 Y1.6800  F200   
G01 X-86.2700 Y6.1470  
G01 X-86.2700 Y49.3280 
G01 X-80.3140 Y55.2840 
G01 X-7.3510 Y55.2840 
G01 X-1.3950 Y49.3280 
G01 X-1.3950 Y7.6360  
G01 X-7.3510 Y1.6800  
G00 Z2.5400  
G00 X-87.7550 Y7.6360  
G01 Z-1.8000 F50    
G01 X-93.7110 Y1.6800  F200   
G01 X-168.1630 Y1.6800  
G01 X-172.6300 Y6.1470  
G01 X-172.6300 Y49.3280 
G01 X-166.6740 Y55.2840 
G01 X-93.7110 Y55.2840 
G01 X-87.7550 Y49.3280 
G01 X-87.7550 Y7.6360  
G00 Z12.7000 
M05
M02
